!!!!SEGMENT: pl-sa--70-a-ii-10--009_pergolesi-giovanni-battista--stabat-mater-sancta-mater.krn
!!!cenid: 17xx:651
!!!COM: Pergolesi, Giovanni Battista
!!!COM-rismid: pe30002483
!!!CDT: 1710/01/04-1736/03
!!!CNT: Italian
!!!OPR: Stabat Mater
!!!OTL: Sancta Mater
!!!OMV: 009
!!!PDT:
!!!AGN: Sacred
!!!SMS-siglum: PL-SA
!!!SMS-shelfmark: 70/A II 10
!!!SMS-shelfwork: 001-009 M
!!!SMS-variant:
!!!SMS-altvar:
!!!NIFC-rismid: 1001030091
!!!URL-scan: http://bc.bdsandomierz.pl/dlibra/publication/1341/edition/1309/content
!!!ONB-nifc: UWAGA: części Stabat Mater: Stabat Mater, Cuius animam, O quam tristis, Quae moerebat, Quist est homo+Pro peccatis, Vidit suum, Eja mater, Fac ut ardeat, Sancta Mater, Fac ut portem, Inflammatus, Quando corpus+Amen
!!!key:
**kern	**fba	**kern	**dynam	**kern	**dynam	**kern	**dynam	**kern	**text	**kern	**text
*part6	*	*part5	*part5	*part4	*part4	*part3	*part3	*part2	*part2	*part1	*part1
*	*	*group2	*	*group2	*	*group2	*	*group1	*	*group1	*
*staff6	*	*staff5	*	*staff4	*	*staff3	*	*staff2	*staff2	*staff1	*staff1
*Iorgan	*	*Iviola	*	*Ivioln	*	*Ivioln	*	*Ialto	*	*Ivox	*
*I"ORGANO	*	*I"Alto Viola	*	*I"Violino 2do.	*	*I"Violino 1mo	*	*I"Alto	*	*I"Canto	*
*I'org.	*	*I'a-vla	*	*I'vl 2	*	*I'vl 1	*	*I'A	*	*I'S	*
*clefF4	*	*clefC3	*	*clefG2	*	*clefG2	*	*clefC3	*	*clefC1	*
*k[b-e-a-]	*	*k[e-b-a-]	*	*k[e-b-a-]	*	*k[e-b-a-]	*	*k[e-b-a-]	*	*k[e-b-a-]	*
*E-:	*	*E-:	*	*E-:	*	*E-:	*	*E-:	*	*E-:	*
*M4/4	*	*M4/4	*	*M4/4	*	*M4/4	*	*M4/4	*	*M4/4	*
*met(c)	*	*met(c)	*	*met(c)	*	*met(c)	*	*met(c)	*	*met(c)	*
=1	=1	=1	=1	=1	=1	=1	=1	=1	=1	=1	=1
*	*	*	*	*2\right	*	*2\right	*	*	*	*	*
!	!	!	!	!	!	!	!	!	!	!LO:TX:a:t=P:problem=bemole ee- b- a-	!
!LO:TX:b:i:t=Sancta mater	!	!LO:TX:b:i:t=Sancta Mater	!	!LO:TX:b:i:t=Sancta Mater	!	!LO:TX:b:i:t=Sancta Mater	!	!LO:TX:a:t=26	!	!	!
!LO:TX:a:i:t=Tempo Guſto	!	!LO:TX:a:i:t=Tempo Gusto	!	!LO:TX:a:i:t=Tempo Gusto	!	!LO:TX:a:i:t=Tempo Gusto	!	!LO:TX:a:t=Tempo Giusto	!	!	!
8E-\L	.	8g\L	.	2ee-\	.	2ee-\	.	00r	.	00r	.
8E-\	.	8g\	.	.	.	.	.	.	.	.	.
8E-\	.	8g\	.	.	.	.	.	.	.	.	.
8E-\J	.	8g\J	.	.	.	.	.	.	.	.	.
8D\L	6	8f\L	.	2b-\	.	2b-\	.	.	.	.	.
8D\	.	8f\	.	.	.	.	.	.	.	.	.
8D\	.	8f\	.	.	.	.	.	.	.	.	.
8D\J	.	8f\J	.	.	.	.	.	.	.	.	.
=2	=2	=2	=2	=2	=2	=2	=2	=2	=2	=2	=2
!	!	!	!	!LO:TX:a:t=P:problem=mixed beam	!	!LO:TX:a:t=P:problem=mixed beam	!	!	!	!	!
8C/L	.	8e-\L	.	8e-/L	.	8e-/L	.	.	.	.	.
8C/	.	8e-\	.	8ee-\J	.	8ee-\J	.	.	.	.	.
8GG/	.	8e-\	.	8ee-\L	.	8ee-\L	.	.	.	.	.
8GG/J	6	8e-\J	.	16dd\L	.	16dd\L	.	.	.	.	.
.	.	.	.	16ee-\JJ	.	16ee-\JJ	.	.	.	.	.
!LO:TX:a:t=P:problem=mixed beam	!	!	!	!	!	!	!	!	!	!	!
8AA-/L	.	8e-\L	.	16ff\LL	.	16ff\LL	.	.	.	.	.
.	.	.	.	16gg\	.	16gg\	.	.	.	.	.
8A-\	.	8e-\	.	16aa-\	.	16aa-\	.	.	.	.	.
.	.	.	.	16bb-\JJ	.	16bb-\JJ	.	.	.	.	.
8D\	6 5	8f\	.	8ccc\L	.	8ccc\L	.	.	.	.	.
8D\J	.	8f\J	.	16bb-\L	.	16bb-\L	.	.	.	.	.
.	.	.	.	16aa-\JJ	.	16aa-\JJ	.	.	.	.	.
=3	=3	=3	=3	=3	=3	=3	=3	=3	=3	=3	=3
8E-\L	.	8B-\L	.	16gg\LL	.	16gg\LL	.	.	.	.	.
.	.	.	.	16ff\	.	16ff\	.	.	.	.	.
8E-\	.	8g\	.	16bb-\	.	16bb-\	.	.	.	.	.
.	.	.	.	16gg\JJ	.	16gg\JJ	.	.	.	.	.
8G\	6	8g\	.	2ee-\	.	2gg\	.	.	.	.	.
8G\J	.	8g\J	.	.	.	.	.	.	.	.	.
8A-\L	6 5	8f\L	.	.	.	.	.	.	.	.	.
8A-\	.	8f\	.	.	.	.	.	.	.	.	.
8B-\	.	8f\	.	16.dd\LL	.	16.dd\LL	.	.	.	.	.
.	.	.	.	32cc\K	.	32cc\K	.	.	.	.	.
8B-\J	.	8f\J	.	16.b-\	.	16.b-\	.	.	.	.	.
.	.	.	.	32a-\JJk	.	32a-\JJk	.	.	.	.	.
=4	=4	=4	=4	=4	=4	=4	=4	=4	=4	=4	=4
8E-\L	.	8e-\L	.	16g/LL	.	16g/LL	.	.	.	.	.
.	.	.	.	16e-/	.	(16e-/	.	.	.	.	.
8E-\	.	8g\	.	16e-/	.	16e-/	.	.	.	.	.
.	.	.	.	16g/JJ	.	16g/JJ)	.	.	.	.	.
8E-\	.	8g\	.	16g\LL	.	(16g\LL	.	.	.	.	.
.	.	.	.	16b-\	.	16b-\)	.	.	.	.	.
8E-\J	-7	8g\J	.	16b-\	.	16b-\	.	.	.	.	.
.	.	.	.	16dd-X\JJ	.	16dd-X\JJ	.	.	.	.	.
8E-\L	.	8a-\L	.	16cc\LL	.	(16cc\LL	.	.	.	.	.
!	!	!	!	!LO:SIC:v:s=16d	!	!	!	!	!	!	!
.	.	.	.	16dd-\	.	16ddn\	.	.	.	.	.
!	!	!	!	!LO:SIC:v:s=16d	!	!	!	!	!	!	!
!	!	!	!	!	!	!LO:TX:a:t=P:problem=poprawiany zapis	!	!	!	!	!
8E-\	6 4	8a-\	.	16dd-\	.	16dd\)	.	.	.	.	.
.	.	.	.	16ee-\JJ	.	16ee-\JJ	.	.	.	.	.
8E-\	#	8a-\	.	16ee-\LL	.	(16ee-\LL	.	.	.	.	.
.	.	.	.	16cc\	.	16cc\)	.	.	.	.	.
8E-\J	7	8a-\J	.	16b-\	.	(16b-\	.	.	.	.	.
.	.	.	.	16a-\JJ	.	16a-\JJ)	.	.	.	.	.
=5	=5	=5	=5	=5	=5	=5	=5	=5	=5	=5	=5
!	!	!LO:TX:a:t=P:problem=mixed beam	!	!	!	!	!	!	!	!	!
8E-\L	8	8b-\L	.	(16g\LL	.	(16a-\LL	.	00r	.	00r	.
.	.	.	.	16cc\	.	16cc\)	.	.	.	.	.
8E-\	.	8B-/	.	16b-\	.	(16b-\	.	.	.	.	.
.	.	.	.	16dd\JJ)	.	16dd\JJ)	.	.	.	.	.
8E-\	.	8B-/	.	(16dd\LL	.	16ee-\LL	.	.	.	.	.
.	.	.	.	16b-\	.	(16b-\	.	.	.	.	.
8E-\J	.	8B-/J	.	16g\)	.	16g\)	.	.	.	.	.
.	.	.	.	16e-\JJ	.	16e-\JJ	.	.	.	.	.
8BB-/L	.	8d\L	.	(16f/LL	.	(16f/LL	.	.	.	.	.
.	.	.	.	16a-/	.	16a-/)	.	.	.	.	.
8BB-/	.	8d\	.	16g/)	.	(16g/	.	.	.	.	.
.	.	.	.	16b-/JJ	.	16b-/JJ)	.	.	.	.	.
8BB-/	7	8d\	.	(8.a-/L	.	8.a-/L	.	.	.	.	.
8BB-/J	.	8d\J	.	.	.	.	.	.	.	.	.
.	.	.	.	32g/LL	.	32g/LL	.	.	.	.	.
.	.	.	.	32f/JJJ)	.	32f/JJJ	.	.	.	.	.
!	!	!LO:LB:g=original	!	!	!	!	!	!	!	!	!
=6	=6	=6	=6	=6	=6	=6	=6	=6	=6	=6	=6
*	*	*	*	*	*	*	*below	*	*	*	*
!	!	!	!	!LO:TX:a:t=P:problem=mixed beam	!	!LO:TX:a:t=P:problem=mixed beam	!	!	!	!	!
4E-\	.	4e-\	.	16g/LL	.	16g/LL	p	.	.	.	.
.	.	.	.	16ee-\	.	16ee-\	.	.	.	.	.
.	.	.	.	(16ddn\	.	(16ddn\	.	.	.	.	.
.	.	.	.	16ee-\JJ)	.	16ee-\JJ)	.	.	.	.	.
4r	.	4r	.	(16dd\LL	.	16dd\LL	.	.	.	.	.
.	.	.	.	16ee-\	.	16ee-\	.	.	.	.	.
.	.	.	.	16dd\)	.	16dd\	.	.	.	.	.
.	.	.	.	16ee-\JJ	.	16ee-\JJ	.	.	.	.	.
8r	.	8r	.	2an/	f	2an/	f	.	.	.	.
8G-X\L	2	8g-X\L	.	.	.	.	.	.	.	.	.
8F\	.	8f\	.	.	.	.	.	.	.	.	.
8E-\J	.	8e-\J	.	.	.	.	.	.	.	.	.
=7	=7	=7	=7	=7	=7	=7	=7	=7	=7	=7	=7
!	!	!	!	!	!LO:DY:t=p&colon;	!	!	!	!	!	!
4D\	6	4d\	.	16b-\LL	p	16b-\LL	.	.	.	.	.
.	.	.	.	16ff\	.	16ff\	.	.	.	.	.
.	.	.	.	16een\	.	16een\	.	.	.	.	.
.	.	.	.	16ff\JJ	.	16ff\JJ	.	.	.	.	.
!	!	!	!	!LO:LB:g=original	!	!	!	!	!	!	!
4r	.	4r	.	(16ee\LL	.	(16ee\LL	.	.	.	.	.
.	.	.	.	16ff\	.	16ff\)	.	.	.	.	.
.	.	.	.	16ee\	.	16ee\	.	.	.	.	.
.	.	.	.	16ff\JJ)	.	16ff\JJ	.	.	.	.	.
8r	.	8r	.	2a-X/	f	2a-X/	f	.	.	.	.
8BB-\L	7	8B-\L	.	.	.	.	.	.	.	.	.
8C\	.	8c\	.	.	.	.	.	.	.	.	.
8D\J	.	8d\J	.	.	.	.	.	.	.	.	.
=8	=8	=8	=8	=8	=8	=8	=8	=8	=8	=8	=8
!LO:TX:a:t=P:problem=mixed beam	!	!	!	!	!	!	!	!	!	!	!
8E-\L	.	8e-\L	.	16g/LL	.	16g/LL	.	.	.	.	.
.	.	.	.	16cc/	.	16cc/	.	.	.	.	.
8A-\	.	8c\	.	16a-/	.	16a-/	.	.	.	.	.
.	.	.	.	16f/JJ	.	16f/JJ	.	.	.	.	.
.	.	.	.	.	.	8qqe-/	.	.	.	.	.
8B-\	.	8B-\	.	4d/	.	4d/	.	.	.	.	.
8BB-/J	.	8A-\J	.	.	.	.	.	.	.	.	.
!	!	!	!	!LO:TX:a:t=P:problem=mixed beam	!	!LO:TX:a:t=P:problem=mixed beam	!	!	!	!	!
4E-\	.	4G/	.	16e-/LL	.	16e-/LL	.	.	.	.	.
.	.	.	.	16ee-\	.	16ee-\	.	.	.	.	.
.	.	.	.	16dd\	.	16dd\	.	.	.	.	.
.	.	.	.	16ee-\JJ	.	16ee-\JJ	.	.	.	.	.
!	!	!	!	!	!	!LO:LB:g=original	!	!	!	!	!
4r	.	4r	.	16dd\LL	.	16dd\LL	.	.	.	.	.
.	.	.	.	16ee-\	.	16ee-\	.	.	.	.	.
.	.	.	.	16dd\	.	16dd\	.	.	.	.	.
.	.	.	.	16ee-\JJ	.	16ee-\JJ	.	.	.	.	.
=9	=9	=9	=9	=9	=9	=9	=9	=9	=9	=9	=9
8r	.	8r	.	2an/	.	2an/	.	00r	.	0r	.
8G-X\L	2	8g-X\L	.	.	.	.	.	.	.	.	.
8F\	5	8f\	.	.	.	.	.	.	.	.	.
8E-\J	.	8e-\J	.	.	.	.	.	.	.	.	.
4D\	.	4d\	.	16b-\LL	.	16b-\LL	f	.	.	.	.
.	.	.	.	16ff\	.	16ff\	.	.	.	.	.
.	6	.	.	16een\	.	(16een\	.	.	.	.	.
.	.	.	.	16ff\JJ	.	16ff\JJ)	.	.	.	.	.
4r	.	4r	.	16ee\LL	.	16ee\LL	.	.	.	.	.
.	.	.	.	16ff\	.	16ff\	.	.	.	.	.
.	.	.	.	16ee\	.	16ee\	.	.	.	.	.
.	.	.	.	16ff\JJ	.	16ff\JJ	.	.	.	.	.
!LO:LB:g=original	!	!	!	!	!	!	!	!	!	!	!
=10	=10	=10	=10	=10	=10	=10	=10	=10	=10	=10	=10
8r	.	8r	.	2a-X/	.	2a-X/	.	.	.	.	.
8BB-/L	.	8B-\L	.	.	.	.	.	.	.	.	.
8C/	.	8c\	.	.	.	.	.	.	.	.	.
8D/J	.	8d\J	.	.	.	.	.	.	.	.	.
!LO:TX:a:t=P:problem=mixed beam	!	!	!	!	!	!	!	!	!	!	!
8E-\L	.	8e-\L	.	16g/LL	.	16g/LL	.	.	.	.	.
.	.	.	.	16cc/	.	16cc/	.	.	.	.	.
8A-\	.	8c\	.	16a-/	.	16a-/	.	.	.	.	.
.	.	.	.	16f/JJ	.	16f/JJ	.	.	.	.	.
.	.	.	.	.	.	8qqe-/	.	.	.	.	.
8B-\	.	8B-\	.	4d/	.	4d/	.	.	.	.	.
8BB-/J	.	8A-\J	.	.	.	.	.	.	.	.	.
=11	=11	=11	=11	=11	=11	=11	=11	=11	=11	=11	=11
4E-\	.	4G/	.	8e-/L	.	8e-/L	.	.	.	2r	.
.	.	.	.	8B-/J	.	8B-/J	.	.	.	.	.
4r	.	4r	.	4G/	.	4B-/	.	.	.	.	.
*	*	*	*	*	*	*	*	*	*	*2\right	*
!	!	!	!	!	!LO:DY:t=p&colon;	!	!LO:DY:t=p&colon;	!	!	!	!
8E-\L	.	8e-\L	p	8g/L	p	8b-\L	p	.	.	2ee-\	San-
8E-\	.	8e-\	.	8g/	.	8b-\	.	.	.	.	.
8E-\	.	8e-\	.	8g/	.	8b-\	.	.	.	.	.
8E-\J	.	8e-\J	.	8g/J	.	8b-\J	.	.	.	.	.
=12	=12	=12	=12	=12	=12	=12	=12	=12	=12	=12	=12
8D\L	6	8d\L	.	8f/L	.	8b-\L	.	.	.	2b-\	-cta
8D\	.	8d\	.	8f/	.	8b-\	.	.	.	.	.
8D\	.	8d\	.	8f/	.	8b-\	.	.	.	.	.
8D\J	.	8d\J	.	8f/J	.	8b-\J	.	.	.	.	.
.	.	.	.	.	.	.	.	.	.	8qqf/	.
!	!	!LO:TX:a:t=P:problem=mixed beam	!	!	!	!	!	!	!	!	!
8C/L	.	8c\L	.	8e-/L	.	8g/L	.	.	.	16e-/LL	Ma-
.	.	.	.	.	.	.	.	.	.	16d/JJ	.
8C/	.	8c\	.	8e-/	.	8g/	.	.	.	4.e-/	-ter
8GG/	6	8G/	.	8e-/	.	8g/	.	.	.	.	.
8GG/J	.	8G/J	.	8e-/J	.	8g/J	.	.	.	.	.
=13	=13	=13	=13	=13	=13	=13	=13	=13	=13	=13	=13
!LO:TX:a:t=P:problem=mixed beam	!	!LO:TX:a:t=P:problem=mixed beam	!	!	!	!	!	!	!	!	!
8AA-/L	.	8A-/L	.	8e-/L	.	8f/L	.	00r	.	16.f/LL	is-
.	.	.	.	.	.	.	.	.	.	32g/K	.
8A-\	.	8a-\	.	8e-/	.	8f/	.	.	.	16.a-/	.
.	.	.	.	.	.	.	.	.	.	32b-/JJk	.
8D\	6 5	8d\	.	8d/	.	8a-/	.	.	.	8cc\	-tud
8D\J	.	8d\J	.	8e-/J	.	8a-/J	.	.	.	16.b-\LL	.
.	.	.	.	.	.	.	.	.	.	32a-\JJk	.
!LO:TX:a:t=P:problem=mixed beam	!	!LO:TX:a:t=P:problem=mixed beam	!	!	!	!	!	!	!	!	!
8E-\L	.	8e-\L	.	8B-/L	.	8g/L	.	.	.	16.g/LL	.
.	.	.	.	.	.	.	.	.	.	32f/JJk	a-
8E-\	.	8e-\	.	8e-/	.	8g/	.	.	.	8e-/	-gaſ
8GG/	6	8G/	.	8e-/	.	8g/	.	.	.	[4ee-\	is-
8GG/J	.	8G/J	.	8e-/J	.	8g/J	.	.	.	.	.
=14	=14	=14	=14	=14	=14	=14	=14	=14	=14	=14	=14
8AA-/L	6 5	8A-/L	.	8e-/L	.	8f/L	.	.	.	4ee-\]	.
8AA-/	.	8A-/	.	8e-/	.	8f/	.	.	.	.	.
8BB-/	.	8B-/	.	8d/	.	8f/	.	.	.	16.dd\LL	-tud
.	.	.	.	.	.	.	.	.	.	32cc\K	.
8BB-/J	.	8B-/J	.	8d/J	.	8f/J	.	.	.	16.b-\	.
.	.	.	.	.	.	.	.	.	.	32a-\JJk	.
8E-\L	.	8e-\L	.	8e-/	.	8g/	.	.	.	16g/LL	a-
.	.	.	.	.	.	.	.	.	.	16f/JJ	.
8G\	.	8g\	.	4ee-\	.	4ee-\	.	.	.	8e-/	-gas
8F\	.	8f\	.	.	.	.	.	.	.	4r	.
8A-\J	4 2	8a-\J	.	8dd\	.	8dd\	.	.	.	.	.
!	!	!	!	!	!	!	!	!	!	!LO:LB:g=original	!
=15	=15	=15	=15	=15	=15	=15	=15	=15	=15	=15	=15
8G\	6	8g\	.	8r	.	8r	.	.	.	8b-\	Cru-
8r	.	8r	.	8g/	.	8b-\	.	.	.	4b-\	.
8E-\	.	8e-\	.	8r	.	8r	.	.	.	.	.
8r	.	8r	.	8g/	.	8cc\	.	.	.	8cc\	-ci-
!	!	!LO:LB:g=original	!	!	!	!	!	!	!	!	!
8F\	6	8f\	.	8r	.	8r	.	.	.	8a-\	-fi-
!	!	!	!	!LO:LB:g=original	!	!	!	!	!	!	!
8r	.	8r	.	8f/	.	8a-\	.	.	.	4a-\	.
8D\	6 5	8d\	.	8r	.	8r	.	.	.	.	.
8r	.	8r	.	8f/	.	8b-\	.	.	.	8ff\	-xi
=16	=16	=16	=16	=16	=16	=16	=16	=16	=16	=16	=16
8E-\	.	8e-\	.	8r	.	8r	.	.	.	8g\	fi-
8r	.	8r	.	8e-/	.	8g/	.	.	.	4ee-\	.
8BBn/	7	8An/	.	8r	.	8r	.	.	.	.	.
8r	.	8r	.	8e-/	.	8g/L	.	.	.	8g\	-ge
8r	.	8r	.	8e-/L	.	8g/	.	.	.	8g/	pla-
8BB\L	.	8B-/L	.	8d/J	.	8f/J	.	.	.	8f/	-gas
8D\	.	8d/	.	4r	.	4r	.	.	.	4r	.
8F\J	.	8f/J	.	.	.	.	.	.	.	.	.
=17	=17	=17	=17	=17	=17	=17	=17	=17	=17	=17	=17
8r	.	8r	.	2b-\	.	2b-\	.	00r	.	2b-\	Cor-
8B-\L	.	8b-\L	.	.	.	.	.	.	.	.	.
8d\	.	8dd\	.	.	.	.	.	.	.	.	.
8B-\J	.	8b-\J	.	.	.	.	.	.	.	.	.
8r	.	8r	.	2cc\	.	2cc\	.	.	.	2cc\	-di
!LO:LB:g=original	!	!	!	!	!	!	!	!	!	!	!
8F\L	.	8f\L	.	.	.	.	.	.	.	.	.
8An\	.	8an\	.	.	.	.	.	.	.	.	.
8F\J	.	8f\J	.	.	.	.	.	.	.	.	.
=18	=18	=18	=18	=18	=18	=18	=18	=18	=18	=18	=18
!	!	!	!	!LO:TX:a:t=P:problem=mixed beam	!	!LO:TX:a:t=P:problem=mixed beam	!	!	!	!	!
4B-\	.	4b-\	.	16b-/LL	.	16b-/LL	.	.	.	16dd\LL	me-
.	.	.	.	16bb-\	.	16bb-\	.	.	.	16ee-\JJ	.
.	.	.	.	16aan\	.	16aan\	.	.	.	8ff\	-o
.	.	.	.	16bb-\JJ	.	16bb-\JJ	.	.	.	.	.
4r	.	4r	.	16aa\LL	.	(16aa\LL	.	.	.	4r	.
.	.	.	.	16bb-\	.	16bb-\)	.	.	.	.	.
.	.	.	.	16aa\	.	16aa\	.	.	.	.	.
.	.	.	.	16bb-\JJ	.	16bb-\JJ	.	.	.	.	.
8r	.	8r	.	2een\	.	2een\	.	.	.	4.een\	Cor-
8d-X\L	2	8dd-X\L	.	.	.	.	.	.	.	.	.
8c\	.	8cc\	.	.	.	.	.	.	.	.	.
8B-\J	.	8b-\J	.	.	.	.	.	.	.	8ee\	-di
!	!	!	!	!	!	!LO:LB:g=original	!	!	!	!	!
=19	=19	=19	=19	=19	=19	=19	=19	=19	=19	=19	=19
4An\	6	4an\	.	16ff\LL	.	16ff\LL	.	.	.	16ff\LL	me-
.	.	.	.	16ccc\	.	16ccc\	.	.	.	16ee-\JJ	.
.	.	.	.	16bbn\	.	16bbn\	.	.	.	8ff\	-o
.	.	.	.	16ccc\JJ	.	16ccc\JJ	.	.	.	.	.
4r	.	4r	.	16bb\LL	.	16bb\LL	.	.	.	4rb	.
.	.	.	.	16ccc\	.	16ccc\	.	.	.	.	.
.	.	.	.	16bb\	.	16bb\	.	.	.	.	.
.	.	.	.	16ccc\JJ	.	16ccc\JJ	.	.	.	.	.
8r	.	8r	.	2ee-X\	.	2ee-X\	.	.	.	4.ee-X\	Cor-
8F\L	6	8f\L	.	.	.	.	.	.	.	.	.
8G\	7	8g\	.	.	.	.	.	.	.	.	.
8A\J	.	8an\J	.	.	.	.	.	.	.	8ee-\	-di
=20	=20	=20	=20	=20	=20	=20	=20	=20	=20	=20	=20
8B-\L	.	8b-\L	.	(16dd\LL	.	(16dd\LL	.	.	.	16dd\LL	me-
.	.	.	.	16ff\)	.	16ff\	.	.	.	16ff\	.
8c\	.	8cc\	.	(16ee-\	.	16ee-\)	.	.	.	16ee-\	.
.	.	.	.	16gg\JJ)	.	16gg\JJ	.	.	.	16gg\JJ	.
8d\	.	8dd\	.	16ff\LL	.	16ff\LL	.	.	.	16ff\LL	.
.	.	.	.	16dd\	.	16dd\	.	.	.	16dd\JJ	.
8F\J	n	8f\J	.	16ee-\	.	16ee-\	.	.	.	16ee-\LL	-o
.	.	.	.	16cc\JJ	.	16cc\JJ	.	.	.	16cc\JJ	.
!	!	!	!	!	!	!	!	!	!	!LO:LB:g=original	!
8r	.	8r	.	8.b-\L	.	8.b-\L	.	.	.	8.b-\L	va-
8G\L	.	8g\L	.	.	.	.	.	.	.	.	.
.	.	.	.	16cc\Jk	.	16cc\Jk	.	.	.	16cc\Jk	.
8E-\	.	8e-\	.	4cc\	.	4ccT\	.	.	.	8.cc\	.
8F\J	.	8f\J	.	.	.	.	.	.	.	.	.
.	.	.	.	.	.	.	.	.	.	16b-\	-li-
=21	=21	=21	=21	=21	=21	=21	=21	=21	=21	=21	=21
4BB-/	.	4B-/	.	16r	.	16r	.	00r	.	4b-\	-de
.	.	.	.	16bb-\LL	.	16bb-\LL	.	.	.	.	.
!	!	!	!	!	!	!LO:SIC:v:s=16aa	!	!	!	!	!
.	.	.	.	16aan\	.	16aa-\	.	.	.	.	.
.	.	.	.	16bb-\JJ	.	16bb-\JJ	.	.	.	.	.
!	!	!	!	!	!	!LO:SIC:v:s=16aa	!	!	!	!	!
4r	.	4r	.	16aa\LL	.	16aa-\LL	.	.	.	4r	.
.	.	.	.	16bb-\	.	16bb-\	.	.	.	.	.
!	!	!	!	!	!	!LO:SIC:v:s=16aa	!	!	!	!	!
.	.	.	.	16aa\	.	16aa-\	.	.	.	.	.
.	.	.	.	16bb-\JJ	.	16bb-\JJ	.	.	.	.	.
8r	.	8r	.	2een\	.	2een\	.	.	.	4.een\	Cor-
8d-X\L	4	8dd-X\L	.	.	.	.	.	.	.	.	.
8c\	.	8cc\	.	.	.	.	.	.	.	.	.
8B-\J	.	8b-\J	.	.	.	.	.	.	.	8ee\	-di
=22	=22	=22	=22	=22	=22	=22	=22	=22	=22	=22	=22
4An\	.	4an\	.	16ff\LL	.	16ff\LL	.	.	.	16ff\LL	me-
.	.	.	.	16ccc\	.	16ccc\	.	.	.	16ee-\JJ	.
.	.	.	.	16bbn\	.	16bbn\	.	.	.	8ff\	-o
.	.	.	.	16ccc\JJ	.	(16ccc\JJ	.	.	.	.	.
4r	.	4r	.	16bb\LL	.	16bb\LL	.	.	.	4r	.
.	.	.	.	16ccc\	.	16ccc\)	.	.	.	.	.
.	.	.	.	16bb\	.	16bb\	.	.	.	.	.
.	.	.	.	16ccc\JJ	.	16ccc\JJ	.	.	.	.	.
8r	.	8r	.	2ee-X\	.	2ee-X\	.	.	.	4.ee-X\	Cor-
8F\L	7	8f\L	.	.	.	.	.	.	.	.	.
8G\	.	8g\	.	.	.	.	.	.	.	.	.
8An\J	.	8an\J	.	.	.	.	.	.	.	8ee-\	-di
!	!	!	!	!LO:LB:g=original	!	!	!	!	!	!	!
=23	=23	=23	=23	=23	=23	=23	=23	=23	=23	=23	=23
8B-\L	.	8b-\L	.	16dd\LL	.	(16dd\LL	.	.	.	16dd\LL	me-
.	.	.	.	16ff\	.	16ff\	.	.	.	16ff\	.
8c\	.	8cc\	.	16ee-\	.	16ee-\)	.	.	.	16ee-\	.
.	.	.	.	16gg\JJ	.	16gg\JJ	.	.	.	16gg\JJ	.
8d\	.	8dd\	.	16ff\LL	.	16ff\LL	.	.	.	16ff\LL	.
.	.	.	.	16dd\	.	16dd\	.	.	.	16dd\JJ	.
8F\J	n	8f\J	.	16ee-\	.	16ee-\	.	.	.	16ee-\LL	-o
.	.	.	.	16cc\JJ	.	16cc\JJ	.	.	.	16cc\JJ	.
8r	.	8r	.	8.b-\L	.	8.b-\L	.	.	.	8.b-\L	va-
8G\L	.	8g\L	.	.	.	.	.	.	.	.	.
.	.	.	.	16cc\Jk	.	16cc\Jk	.	.	.	16cc\Jk	.
8E-\	6 5	8e-\	.	4cc\	.	4ccT\	.	.	.	8.cc\	.
8F\J	n	8f\J	.	.	.	.	.	.	.	.	.
.	.	.	.	.	.	.	.	.	.	16b-\	-li-
!	!	!LO:LB:g=original	!	!	!	!	!	!	!	!	!
=24	=24	=24	=24	=24	=24	=24	=24	=24	=24	=24	=24
8BB-/L	.	8d\L	.	16dd\LL	.	(16dd\LL	f	.	.	4b-\	-de
.	.	.	.	16b-\	.	16b-\)	.	.	.	.	.
8BB-/	.	8d\	.	16b-\	.	(16b-\	.	.	.	.	.
.	.	.	.	16dd\JJ	.	16dd\JJ)	.	.	.	.	.
8BB-/	.	8d\	.	16dd\LL	.	16dd\LL	.	.	.	4r	.
.	.	.	.	16ff\	.	16ff\	.	.	.	.	.
8BB-/J	.	8d\J	.	16ff\	.	16ff\	.	.	.	.	.
.	.	.	.	16aa-\JJ	.	16aa-X\JJ	.	.	.	.	.
8BB-/L	.	8e-\L	.	16gg\LL	.	(16gg\LL	.	.	.	2r	.
.	.	.	.	16aan\	.	16aan\)	.	.	.	.	.
8BB-/	.	8e-\	.	16aa\	.	(16aa\	.	.	.	.	.
.	.	.	.	16bb-\JJ	.	16bb-\JJ)	.	.	.	.	.
8BB-/	.	8d\	.	16bb-\LL	.	(16bb-\LL	.	.	.	.	.
.	.	.	.	16ff\	.	16ff\)	.	.	.	.	.
8BB-/J	.	8d\J	.	16dd\	.	(16dd\	.	.	.	.	.
.	.	.	.	16b-\JJ	.	16b-\JJ)	.	.	.	.	.
=25	=25	=25	=25	=25	=25	=25	=25	=25	=25	=25	=25
8FF/L	.	8e-\L	.	16cc\LL	.	(16cc\LL	.	0r	.	00r	.
.	.	.	.	16ee-\	.	16ee-\)	.	.	.	.	.
8FF/	.	8e-\	.	16dd\	.	(16dd\	.	.	.	.	.
.	.	.	.	16ff\JJ	.	16ff\JJ)	.	.	.	.	.
8FF/	7	8d 8An\	.	8.ee-\L	.	8ee-\L	.	.	.	.	.
8FF/J	.	8dJ 8A\	.	.	.	16dd\L	.	.	.	.	.
.	.	.	.	32dd\LL	.	16cc\JJ	.	.	.	.	.
.	.	.	.	32cc\JJJ	.	.	.	.	.	.	.
!	!	!LO:TX:a:t=P:problem=mixed beam	!	!	!	!	!	!	!	!	!
8BB-\L	.	8B-/L	.	16dd\LL	.	(16dd\LL	.	.	.	.	.
.	.	.	.	16ff\	.	16ff\)	.	.	.	.	.
8C\J	.	8an\	.	16ee-\	.	(16ee-\	.	.	.	.	.
.	.	.	.	16gg\JJ	.	16gg\JJ)	.	.	.	.	.
!LO:LB:g=original	!	!	!	!	!	!	!	!	!	!	!
8D\L	.	8b-\	.	16ff\LL	.	(16ff\LL	.	.	.	.	.
.	.	.	.	16dd\	.	16dd\)	.	.	.	.	.
!	!	!LO:TX:b:t=a	!	!	!	!	!	!	!	!	!
8E-\J	.	8Bn/J	.	16ee-\	.	(16ee-\	.	.	.	.	.
.	.	.	.	16cc\JJ	.	16cc\JJ)	.	.	.	.	.
=26	=26	=26	=26	=26	=26	=26	=26	=26	=26	=26	=26
8r	.	8B-/	.	8.b-\L	.	8.b-\L	.	.	.	.	.
8G\L	.	4b-\	.	.	.	.	.	.	.	.	.
.	.	.	.	16cc\Jk	.	16cc\Jk	.	.	.	.	.
!	!	!	!	!	!	!LO:LB:g=original	!	!	!	!	!
8E-\	6 5	.	.	4cc\	.	4ccT\	.	.	.	.	.
8F\J	.	8an\	.	.	.	.	.	.	.	.	.
4BB-/	.	4b-\	.	8b-/L	.	8b-\L	.	.	.	.	.
.	.	.	.	8f/J	.	8f\J	.	.	.	.	.
4r	.	4r	.	4B-/	.	4B-/	.	.	.	.	.
=27	=27	=27	=27	=27	=27	=27	=27	=27	=27	=27	=27
*	*	*	*	*	*	*	*	*2\right	*	*	*
8B-\L	.	8b-\L	.	8f/L	.	8dd\L	p	2b-\	Tu-	.	.
8B-\	.	8b-\	.	8f/	.	8dd\	.	.	.	.	.
8B-\	.	8b-\	.	8f/	.	8dd\	.	.	.	.	.
8B-\J	.	8b-\J	.	8f/J	.	8dd\J	.	.	.	.	.
8An\L	6	8an\L	.	8f/L	.	8cc\L	.	2f\	-i	.	.
8A\	.	8a\	.	8f/	.	8cc\	.	.	.	.	.
8A\	.	8a\	.	8f/	.	8cc\	.	.	.	.	.
8A\J	.	8a\J	.	8f/J	.	8cc\J	.	.	.	.	.
=28	=28	=28	=28	=28	=28	=28	=28	=28	=28	=28	=28
!	!	!	!	!LO:TX:a:t=P:problem=mixed beam	!	!	!	!	!	!	!
8G\L	.	8g\L	.	8d/L	.	8b-\L	.	16d/LL	na-	.	.
.	.	.	.	.	.	.	.	16c/JJ	.	.	.
8G\	.	8g\	.	8dd\	.	8b-\	.	4.B-/	-ti	.	.
8D\	6	8d\	.	8dd\	.	8b-\	.	.	.	.	.
8D\J	.	8d\J	.	8dd\J	.	8b-\J	.	.	.	.	.
!LO:TX:a:t=P:problem=mixed beam	!	!	!	!	!	!	!	!	!	!	!
8E-\L	.	8e-\L	.	8dd\L	.	8b-\L	.	16.c/LL	vul-	.	.
.	.	.	.	.	.	.	.	32d/K	.	.	.
8E-\	.	8e-\	.	8dd\	.	8b-\	.	16.e-/	.	.	.
.	.	.	.	.	.	.	.	32f/JJk	.	.	.
8AAn/	6 5	8An\	.	8ee-\	.	8cc\	.	8g\L	-ne-	.	.
8AA/J	.	8A\J	.	8ee-\J	.	8cc\J	.	16f\L	.	.	.
.	.	.	.	.	.	.	.	16e-\JJ	.	.	.
=29	=29	=29	=29	=29	=29	=29	=29	=29	=29	=29	=29
*	*	*	*	*	*	*	*	*Xtuplet	*	*	*
!	!	!	!	!	!	!LO:N:vis=16	!	!LO:N:vis=24	!	!	!
8BB-/L	.	8B-\L	.	8dd\L	.	8f/L	.	12d/L	-ra-	00r	.
!	!	!	!	!	!	!	!	!LO:N:vis=24	!	!	!
.	.	.	.	.	.	.	.	12c/	.	.	.
!	!	!	!	!	!	!LO:N:vis=16	!	!	!	!	!
8BB-/	.	8B-\	.	8dd\	.	8b-/	.	.	.	.	.
!	!	!	!	!	!	!	!	!LO:N:vis=24	!	!	!
.	.	.	.	.	.	.	.	12B-/J	-ti	.	.
!	!	!	!	!	!	!LO:N:vis=16	!	!	!	!	!
8D/	6	8d\	.	8dd\	.	8b-/	.	2b-\	.	.	.
!	!	!	!	!	!	!LO:N:vis=16	!	!	!	!	!
8D/J	.	8d\J	.	8dd\J	.	8b-/J	.	.	.	.	.
8E-\L	6 5	8e-\L	.	8cc\L	.	8b-/L	.	.	.	.	.
8E-\	.	8e-\	.	8cc\	.	8b-/	.	.	.	.	.
8F\	n	8f\	.	8cc\	.	8an/	.	32an\KLL	vul-	.	.
.	.	.	.	.	.	.	.	16.g\JJ	.	.	.
8F\J	.	8f\J	.	8cc\J	.	8a/J	.	32f\KLL	-ne-	.	.
.	.	.	.	.	.	.	.	16.e-\JJ	.	.	.
!	!	!	!	!LO:LB:g=original	!	!	!	!	!	!	!
=30	=30	=30	=30	=30	=30	=30	=30	=30	=30	=30	=30
8BB-/L	.	8B-/L	.	8b-/	.	8b-\	.	16d/LL	-ra-	.	.
.	.	.	.	.	.	.	.	16c/JJ	.	.	.
8D/	.	8d/	.	4bb-\	.	4bb-\	.	8B-/	-ti	.	.
8C/	7	8c/	.	.	.	.	.	4r	.	.	.
8E-/J	4 2	8e-/J	.	8aan\	.	8aan\	.	.	.	.	.
!	!	!	!	!	!	!LO:TX:a:t=P:problem=kreska taktowa przemieniona w pauzę 8	!	!	!	!	!
4D/	.	8d\	.	8r	.	8r	.	8f\	tam	.	.
.	.	8r	.	8dd\	.	8ff\	.	4f\	dig-	.	.
8r	.	8B-/	.	8r	.	8r	.	.	.	.	.
8BB-/	.	8r	.	8dd\	.	8gg\	.	8g\	.	.	.
=31	=31	=31	=31	=31	=31	=31	=31	=31	=31	=31	=31
8C/	6	8c\	.	8r	.	8r	.	8e-\	-na-	.	.
8r	.	8r	.	8cc\	.	8ee-\	.	4e-\	-ti	.	.
8AAn/	6 5	8An/	.	8r	.	8r	.	.	.	.	.
8r	.	8r	.	8cc\	.	8ff\	.	8cc\	.	.	.
8BB-/	.	8B-/	.	8r	.	8r	.	8d\	pro	.	.
8r	.	8r	.	8b-\	.	8dd\	.	4b-\	me	.	.
8En\	.	8en\	.	8r	.	8r	.	.	.	.	.
8r	.	8r	.	8b-\	.	8dd\	.	8d\	.	.	.
!	!	!LO:LB:g=original	!	!	!	!	!	!LO:LB:g=original	!	!	!
=32	=32	=32	=32	=32	=32	=32	=32	=32	=32	=32	=32
8r	.	8r	.	8b-/L	.	8dd'\L	.	8d\	pa-	.	.
8F\L	n	8f\L	.	8an/J	.	8cc'\J	.	8c\	-ti	.	.
8An\	.	8an\	.	4r	.	4r	.	4r	.	.	.
8c\J	.	8cc\J	.	.	.	.	.	.	.	.	.
!	!	!	!	!	!	!	!	!LO:SIC:v:l:s=poe-	!	!	!
8r	.	8r	.	2ff\	.	2ff\	.	2f\	pee-	.	.
8F\L	.	8f\L	.	.	.	.	.	.	.	.	.
8An\	.	8an\	.	.	.	.	.	.	.	.	.
8F\J	.	8f\J	.	.	.	.	.	.	.	.	.
=33	=33	=33	=33	=33	=33	=33	=33	=33	=33	=33	=33
8r	.	8r	.	2gg\	.	2gg\	.	2g\	-nas	00r	.
8C/L	n	8c\L	.	.	.	.	.	.	.	.	.
8En/	.	8en\	.	.	.	.	.	.	.	.	.
8C/J	.	8c\J	.	.	.	.	.	.	.	.	.
4F\	n	4f\	.	16aa-\LL	.	16aa-\LL	.	16an\LL	me-	.	.
.	.	.	.	16ff\	.	16ff\	.	16g\JJ	.	.	.
.	.	.	.	16een\	.	16een\	.	8f\	-cum	.	.
.	.	.	.	16ff\JJ	.	16ff\JJ	.	.	.	.	.
!LO:LB:g=original	!	!	!	!	!	!	!	!	!	!	!
4r	.	4r	.	16ee\LL	.	(16ee\LL	.	4r	.	.	.
.	.	.	.	16ff\	.	16ff\)	.	.	.	.	.
.	.	.	.	16ee\	.	16ee\	.	.	.	.	.
.	.	.	.	16ff\JJ	.	16ff\JJ	.	.	.	.	.
=34	=34	=34	=34	=34	=34	=34	=34	=34	=34	=34	=34
!	!	!	!	!	!	!	!	!LO:SIC:v:l:s=poe-	!	!	!
8r	.	8r	.	2bn\	.	2bn\	.	2bn\	pee-	.	.
8A-X\L	2	8a-X\L	.	.	.	.	.	.	.	.	.
8G\	n	8g\	.	.	.	.	.	.	.	.	.
8F\J	.	8f\J	.	.	.	.	.	.	.	.	.
4En\	6	4en\	.	16cc\LL	.	16cc\LL	.	4cc\	-nas	.	.
.	.	.	.	16gg\	.	16gg\	.	.	.	.	.
.	.	.	.	16ff#X\	.	16ff#X\	.	.	.	.	.
.	.	.	.	16gg\JJ	.	16gg\JJ	.	.	.	.	.
4r	.	4r	.	16ff#\LL	.	16ff#\LL	.	4r	.	.	.
.	.	.	.	16gg\	.	16gg\	.	.	.	.	.
.	.	.	.	16ff#\	.	16ff#\	.	.	.	.	.
.	.	.	.	16gg\JJ	.	16gg\JJ	.	.	.	.	.
=35	=35	=35	=35	=35	=35	=35	=35	=35	=35	=35	=35
!	!	!	!	!	!	!	!	!LO:SIC:v:l:s=poe-	!	!	!
8r	.	8r	.	2b-X\	.	2b-X\	.	4.b-X\	pee-	.	.
8C\L	-7	8c\L	.	.	.	.	.	.	.	.	.
8D\	.	8d\	.	.	.	.	.	.	.	.	.
8En\J	.	8en\J	.	.	.	.	.	8b-\	-nas	.	.
!LO:TX:a:t=P:problem=mixed beam	!	!	!	!	!	!	!	!	!	!	!
8F\L	n	8f\L	.	16a-\LL	.	16an\LL	.	16an\LL	me-	.	.
.	.	.	.	16cc\	.	16cc\	.	16cc\	.	.	.
8G\	.	8g\	.	16b-\	.	16b-\	.	16b-\	.	.	.
.	.	.	.	16dd\JJ	.	16dd\JJ	.	16dd\	.	.	.
8An\	.	8an\	.	16cc\LL	.	16cc\LL	.	16cc\	.	.	.
.	.	.	.	16a-\	.	16a\	.	16a\JJ	.	.	.
8C/J	n	8c\J	.	16b-\	.	16b-\	.	16b-\LL	-cum	.	.
.	.	.	.	16g\JJ	.	16g\JJ	.	16a\JJ	.	.	.
!	!	!	!	!	!	!LO:LB:g=original	!	!	!	!	!
=36	=36	=36	=36	=36	=36	=36	=36	=36	=36	=36	=36
8r	.	8r	.	8.f/L	.	8.f/L	.	8.f\L	di-	.	.
8D/L	.	8d/L	.	.	.	.	.	.	.	.	.
.	.	.	.	16g/Jk	.	16g/Jk	.	16g\Jk	.	.	.
8BB-/	.	8B-/	.	4g/	.	4g/	.	8.g\	.	.	.
8C/J	.	8c/J	.	.	.	.	.	.	.	.	.
.	.	.	.	.	.	.	.	16f\	-vi-	.	.
4FF/	.	4F/	.	16r	.	16r	.	4f\	-de	.	.
.	.	.	.	16ff\LL	.	16ff\LL	.	.	.	.	.
.	.	.	.	16een\	.	16een\	.	.	.	.	.
.	.	.	.	16ff\JJ	.	16ff\JJ	.	.	.	.	.
4r	.	4r	.	16ee\LL	.	(16ee\LL	.	4r	.	.	.
.	.	.	.	16ff\	.	16ff\)	.	.	.	.	.
.	.	.	.	16ee\	.	16ee\	.	.	.	.	.
.	.	.	.	16ff\JJ	.	16ff\JJ	.	.	.	.	.
!	!	!	!	!	!	!LO:TX:a:t==vi	!	!	!	!	!
=37	=37	=37	=37	=37	=37	=37	=37	=37	=37	=37	=37
!	!	!	!	!	!	!LO:TX:a:t==	!	!	!	!	!
!	!	!	!	!	!	!LO:TX:a:t=P:problem=takt wklejony, jest u dołu strony	!	!	!	!	!
.	.	.	.	.	.	8qqcc/	.	.	.	.	.
!	!	!	!	!	!	!	!	!LO:SIC:v:l:s=poe-	!	!	!
8r	.	8r	.	2bn\	.	2bn\	.	2bn\	pee-	00r	.
8A-X\L	4	8a-X\L	.	.	.	.	.	.	.	.	.
8G\	.	8g\	.	.	.	.	.	.	.	.	.
8F\J	.	8f\J	.	.	.	.	.	.	.	.	.
4En\	6	4en\	.	16cc\LL	.	16cc\LL	.	4cc\	-nas	.	.
.	.	.	.	16gg\	.	16gg\	.	.	.	.	.
.	.	.	.	16ff#X\	.	16ff#X\	.	.	.	.	.
.	.	.	.	16gg\JJ	.	16gg\JJ	.	.	.	.	.
4r	.	4r	.	16ff#\LL	.	16ff#\LL	.	4r	.	.	.
.	.	.	.	16gg\	.	16gg\	.	.	.	.	.
.	.	.	.	16ff#\	.	16ff#\	.	.	.	.	.
.	.	.	.	16gg\JJ	.	16gg\JJ	.	.	.	.	.
!	!	!	!	!LO:LB:g=original	!	!	!	!	!	!	!
=38	=38	=38	=38	=38	=38	=38	=38	=38	=38	=38	=38
.	.	.	.	.	.	8qqcc/	.	.	.	.	.
!	!	!	!	!	!	!	!	!LO:SIC:v:l:s=poe-	!	!	!
8r	.	8r	.	2b-X\	.	2b-X\	.	4.b-X\	pee-	.	.
8C\L	-7	8c\L	.	.	.	.	.	.	.	.	.
8D\	.	8d\	.	.	.	.	.	.	.	.	.
8En\J	.	8en\J	.	.	.	.	.	8b-\	-nas	.	.
!LO:TX:a:t=P:problem=mixed beam	!	!LO:TX:a:t=P:problem=mixed beam	!	!	!	!	!	!LO:LB:g=original	!	!	!
8F\L	.	8f\L	.	16an/LL	.	(16a-\LL	.	16an\LL	me-	.	.
.	.	.	.	16cc/	.	16cc\	.	16cc\	.	.	.
8G\	.	8g\	.	16b-/	.	16b-\)	.	16b-\	.	.	.
.	.	.	.	16dd/JJ	.	16dd\JJ	.	16dd\	.	.	.
8An\	6	8an\	.	16cc/LL	.	16cc\LL	.	16cc\	.	.	.
.	.	.	.	16a/	.	16a-\	.	16a\JJ	.	.	.
8C\J	n	8c/J	.	16b-/	.	16b-\	.	16b-\LL	-cum	.	.
.	.	.	.	16g/JJ	.	16g\JJ	.	16g\JJ	.	.	.
=39	=39	=39	=39	=39	=39	=39	=39	=39	=39	=39	=39
8r	.	8r	.	8.f/L	.	8.f/L	.	8.f\L	di-	.	.
8D/L	.	8d/L	.	.	.	.	.	.	.	.	.
.	.	.	.	16g/Jk	.	16g/Jk	.	16g\Jk	.	.	.
8BB-/	6 5	8B-/	.	4g/	.	4g/	.	8.g\	.	.	.
8C/J	n	8c/J	.	.	.	.	.	.	.	.	.
.	.	.	.	.	.	.	.	16f\	-vi-	.	.
8F\L	.	8an\L	.	2ff\	.	2ff\	.	4f\	-de	.	.
8F\	.	8a\	.	.	.	.	.	.	.	.	.
8F\	.	8a\	.	.	.	.	.	4r	.	.	.
8F\J	.	8a\J	.	.	.	.	.	.	.	.	.
=40	=40	=40	=40	=40	=40	=40	=40	=40	=40	=40	=40
!	!	!	!	!	!	!	!	!LO:TX:a:t=2	!	!	!
8En\L	6 5	8g\L	.	2cc\	.	2cc\	.	0r	.	.	.
8E\	.	8g\	.	.	.	.	.	.	.	.	.
8E\	.	8g\	.	.	.	.	.	.	.	.	.
8E\J	.	8g\J	.	.	.	.	.	.	.	.	.
!LO:TX:a:t=P:problem=mixed beam	!	!LO:LB:g=original	!	!	!	!LO:TX:a:t=P:problem=zamazana nuta	!	!	!	!	!
8F\L	.	8f\L	.	16an/LL	.	(16bn\LL	.	.	.	.	.
.	.	.	.	16cc/	.	16cc\)	.	.	.	.	.
8G\	.	8en\	.	16b-/	.	(16b-y\	.	.	.	.	.
.	.	.	.	16dd/JJ	.	16dd\JJ)	.	.	.	.	.
8An\	.	8f\	.	16cc/LL	.	(16cc\LL	.	.	.	.	.
.	.	.	.	16a/	.	16a-\)	.	.	.	.	.
8C/J	.	8e\J	.	16b-/	.	(16b-\	.	.	.	.	.
.	.	.	.	16g/JJ	.	16g\JJ)	.	.	.	.	.
=41	=41	=41	=41	=41	=41	=41	=41	=41	=41	=41	=41
8r	.	8f\L	.	8.f/L	.	8.f/L	.	.	.	1r	.
8D/L	.	8f\	.	.	.	.	.	.	.	.	.
.	.	.	.	16g/Jk	.	16g/Jk	.	.	.	.	.
8BB-/	6 5	8f\	.	4g/	.	4g/	.	.	.	.	.
8C/J	n	8en\J	.	.	.	.	.	.	.	.	.
4FF/	.	4f\	.	8f/L	.	8f/L	.	.	.	.	.
.	.	.	.	8c/J	.	8c/J	.	.	.	.	.
4r	.	4r	.	4An/	.	4An/	.	.	.	.	.
!LO:LB:g=original	!	!	!	!	!	!	!	!	!	!	!
=42	=42	=42	=42	=42	=42	=42	=42	=42	=42	=42	=42
4r	.	4r	.	4.an/	.	4.cc\	.	4.a-X\	Fac	4.cc\	Fac
4F\	.	4f\	.	.	.	.	.	.	.	.	.
.	.	.	.	8b-/	.	8dd-X\	.	8b-\	me	8dd-X\	me
.	.	.	.	.	.	8qqdd-/	.	.	.	.	.
8F\L	.	8f\L	.	4.a/	.	4.cc\	.	4.a-\	ve-	4.cc\	ve-
8G-X\J	.	(8en\J	.	.	.	.	.	.	.	.	.
4F\	.	4f\)	.	.	.	.	.	.	.	.	.
.	.	.	.	8b-/	.	8dd-\	.	8b-\	-re	8dd-\	-re
=43	=43	=43	=43	=43	=43	=43	=43	=43	=43	=43	=43
8F\L	.	(8f\L	.	4.a-/	.	4.cc\	.	4.a-\	te-	4.cc\	te-
8G-X\J	.	8en\J)	.	.	.	.	.	.	.	.	.
4F\	.	4f\	.	.	.	.	.	.	.	.	.
.	.	.	.	8b-/	.	8dd-X\	.	8b-\	-cum	8dd-X\	-cum
!	!	!	!	!	!	!	!	!	!	!LO:LB:g=original	!
!	!	!	!	!	!	!	!	!LO:SIC:v:l:s=fle-	!	!LO:SIC:v:l:s=fle-	!
8F\L	.	8f\L	.	8a-/L	.	8cc\L	.	8a-\	fla-	8cc\	flor-
!	!	!	!	!	!	!	!	!	!	!LO:SIC:v:l:s=-re	!
8F\	.	8f\	.	16g/L	.	16b-\L	.	16g\LL	.	16b-\LL	-e
.	.	.	.	16f/JJ	.	16a-\JJ	.	16f\JJ	-re	16a-\JJ	.
8C\	n	8c\	.	8g/L	.	8b-\L	.	8g\	te-	8b-\	te-
8C\J	.	8c\J	.	16f/L	.	16a-\L	.	16f\LL	-cum	16a-\LL	-cum
.	.	.	.	16e-/JJ	.	16g\JJ	.	16en\JJ	.	16g\JJ	.
=44	=44	=44	=44	=44	=44	=44	=44	=44	=44	=44	=44
!	!	!	!	!	!	!	!	!LO:SIC:v:l:s=fle-	!	!LO:SIC:v:l:s=fle-	!
8F\L	.	8f\L	.	8f/L	.	16a-/LL	.	16f\LL	fla-	16a-\LL	flo-
.	.	.	.	.	.	16g/J	.	16en\JJ	.	16g\JJ	.
8E-\	.	8g-X\	.	16en/L	.	8f/J	.	8f\	-re	8f/	-re
.	.	.	.	16f/JJ	.	.	.	.	.	.	.
8D-X\	.	8f\	.	4r	.	4r	.	4r	.	4r	.
8C\J	.	8e-\J	.	.	.	.	.	.	.	.	.
4BB-/	-	4.d\	.	4.dd-X\	.	4.ff\	.	4.f\	cru-	4.dd-X\	Cru-
4B-\	.	.	.	.	.	.	.	.	.	.	.
.	.	8b-\	.	8ee-\	.	8gg-X\	.	8g-X\	-ci-	8ee-\	-ci-
=45	=45	=45	=45	=45	=45	=45	=45	=45	=45	=45	=45
8B-\L	.	(8b-\L	.	4.dd-X\	.	4.ff\	.	4.f\	-fi-	4.dd-X\	-fi-
(8c-X\J	.	8an\J)	.	.	.	.	.	.	.	.	.
4B-\)	.	4b-\	.	.	.	.	.	.	.	.	.
.	.	.	.	8ee-\	.	8gg-X\	.	8g-X\	-xo	8ee-\	-xo
8B-\L	.	8b-\L	.	4.dd-\	.	4.ff\	.	4.f\	con-	4.dd-\	con-
(8c-X\J	.	8an\J	.	.	.	.	.	.	.	.	.
4B-\)	.	4b-\	.	.	.	.	.	.	.	.	.
.	.	.	.	8ee-\	.	8gg-X\	.	8g-X\	-do-	8ee-\	-do-
!	!	!	!	!	!	!	!	!LO:LB:g=original	!	!	!
=46	=46	=46	=46	=46	=46	=46	=46	=46	=46	=46	=46
.	.	.	.	.	.	.	.	8qqg/	.	8qqee-/	.
!	!	!	!	!	!	!	!	!	!	!LO:SIC:v:l:s=-le-	!
8B-\L	.	(8b-\L	.	4.dd-X\	.	4.ff\	.	4.f\	-le-	4.dd\	-lo-
8c-X\	.	8an\)	.	.	.	.	.	.	.	.	.
8B-\	.	8b-\	.	.	.	.	.	.	.	.	.
8B-\J	.	8b-\J	.	8ee-\	.	8gg-X\	.	8g-X\	-re	8ee-\	-re
8B-\L	.	8b-\L	.	8dd-\L	.	8ff\L	.	8f\L	con-	8dd-X\L	Con-
8B-\	.	8b-\	.	16cc\L	.	16ee-\L	.	16e-\L	.	16cc\L	.
.	.	.	.	16b-\JJ	.	16dd-X\JJ	.	16d-X\JJ	.	16b-\JJ	.
8F\	n	8f\	.	8cc\L	.	8ee-\L	.	8e-\L	-do-	8cc\L	-do-
8F\J	.	8f\J	.	16b-\L	.	16dd-X\L	.	16d-X\L	.	16b-\L	.
.	.	.	.	16an\JJ	.	16cc\JJ	.	16c\JJ	.	16an\JJ	.
!	!	!	!	!	!	!LO:LB:g=original	!	!	!	!	!
=47	=47	=47	=47	=47	=47	=47	=47	=47	=47	=47	=47
8BB-/L	.	8B-/	.	16b-/LL	.	16dd-X\LL	.	16d-X/LL	-le-	16b-\LL	.
!	!	!	!	!	!	!	!	!	!	!LO:SIC:v:l:s=-le-	!
.	.	.	.	16an/J	.	16cc\J	.	16c/JJ	.	16an\JJ	-lo-
8D-X/	.	4b-\	.	8b-/J	.	8b-\J	.	8B-/	-re	8b-\	-re
8C/	7	.	.	4r	.	4r	.	4r	.	4r	.
8E-/J	4 2	8an\	.	.	.	.	.	.	.	.	.
*2\right	*	*	*	*	*	*	*	*	*	*	*
2D-X\	6	2B-/	.	4b-/	.	2r	.	4b-\	do-	2r	.
.	.	.	.	4dd-X\	.	.	.	4dd-X\	-nec	.	.
=48	=48	=48	=48	=48	=48	=48	=48	=48	=48	=48	=48
*	*	*2\right	*	*	*	*	*	*	*	*	*
2C/	n	2c\	.	2en/	.	4gg\	.	2en\	e-	4gg\	do-
.	7	.	.	.	.	4b-/	.	.	.	4b-\	-nec
!	!	!	!	!LO:LB:g=original	!	!	!	!	!	!	!
4C/	6 4	2c\	.	8f/	.	(>8a-/	.	8f\	-go	8a-\	e-
.	.	.	.	4a-/	.	4cc/	.	4a-\	.	4cc\	-go
4C/	.	.	.	.	.	.	.	.	.	.	.
.	.	.	.	8g/	.	8b-/)	.	8g\	.	8b-\	.
=49	=49	=49	=49	=49	=49	=49	=49	=49	=49	=49	=49
8C/L	6	8c/L	.	8f/L	.	8a-/L	.	4.f\	vi-	4.a-\	vi-
8BBn/	7	8Bn/	.	8f/	.	8a-/	.	.	.	.	.
8BB/	.	8B/	.	8f/	.	8a-/	.	.	.	.	.
8BB/J	.	8B/J	.	8f/J	.	8a-/J	.	8f\	-xe-	8a-\	-xe-
4C/	n	4c/	.	4en/	.	4g/	.	4en\	-ro	4g\	-ro
4r	.	4r	.	4r	.	4r	.	4r	.	4r	.
!	!	!LO:LB:g=original	!	!	!	!	!	!	!	!	!
=50	=50	=50	=50	=50	=50	=50	=50	=50	=50	=50	=50
8r	.	8r	.	2ee-X\	.	2gg\	.	2g\	do-	2ee-X\	do-
8C\L	.	8c\L	.	.	.	.	.	.	.	.	.
8E-X\	.	8e-\	.	.	.	.	.	.	.	.	.
8C\J	.	8c\J	.	.	.	.	.	.	.	.	.
!	!	!	!	!	!	!	!	!	!	!LO:LB:g=original	!
8r	.	8r	.	2dd\	.	2ff\	.	2f\	-nec	2dd\	-nec
8D/L	.	8d/L	.	.	.	.	.	.	.	.	.
8BBn/	6	8B-/	.	.	.	.	.	.	.	.	.
8GG/J	.	8G/J	.	.	.	.	.	.	.	.	.
!LO:LB:g=original	!	!	!	!	!	!	!	!	!	!	!
=51	=51	=51	=51	=51	=51	=51	=51	=51	=51	=51	=51
4C/	.	4c\	.	16ee-\LL	.	16een\LL	.	16e-\LL	e-	16cc\LL	e-
.	.	.	.	16ccc\	.	16ccc\	.	16d\JJ	.	16bn\JJ	.
.	.	.	.	16bbn\	.	16bbn\	.	8e-\	-go	8cc\	-go
.	.	.	.	16ccc\JJ	.	16ccc\JJ	.	.	.	.	.
4r	.	4r	.	16bb\LL	.	16bb\LL	.	4r	.	4r	.
.	.	.	.	16ccc\	.	16ccc\	.	.	.	.	.
.	.	.	.	16bb\	.	16bb\	.	.	.	.	.
.	.	.	.	16ccc\JJ	.	16ccc\JJ	.	.	.	.	.
8r	.	8r	.	2ff#X\	.	2ff#X\	.	2f#X\	do-	2r	.
8E-X\L	2	8e-\L	.	.	.	.	.	.	.	.	.
8D\	.	8d\	.	.	.	.	.	.	.	.	.
8C\J	.	8c\J	.	.	.	.	.	.	.	.	.
=52	=52	=52	=52	=52	=52	=52	=52	=52	=52	=52	=52
4BBn/	6	4Bn/	.	16gg\LL	.	16gg\LL	.	4g\	-nec	2r	.
.	.	.	.	16ddd\	.	16ddd\	.	.	.	.	.
.	.	.	.	16ccc\	.	16ccc\	.	.	.	.	.
.	.	.	.	16ddd\JJ	.	16ddd\JJ	.	.	.	.	.
4r	.	4r	.	16ccc\LL	.	16ccc\LL	.	4r	.	.	.
.	.	.	.	16ddd\	.	16ddd\	.	.	.	.	.
.	.	.	.	16ccc\	.	16ccc\	.	.	.	.	.
.	.	.	.	16ddd\JJ	.	16ddd\JJ	.	.	.	.	.
8r	.	8r	.	2ffn\	.	2aa-X\	.	4.a-X\	do-	4.ff\	do-
8BBn/L	.	8Bn/L	.	.	.	.	.	.	.	.	.
8BB/	7	8B/	.	.	.	.	.	.	.	.	.
8BB/J	.	8B/J	.	.	.	.	.	8a-\	-nec	8ff\	-nec
!	!	!	!	!	!	!	!	!LO:LB:g=original	!	!	!
=53	=53	=53	=53	=53	=53	=53	=53	=53	=53	=53	=53
!LO:TX:a:t=P:problem=mixed beam	!	!	!	!	!	!	!	!	!	!	!
8C\L	.	8c/L	.	8ee-\L	.	8gg\L	.	8g\L	e-	8ee-\L	e-
8C\	.	8c/	.	16dd\L	.	16ff\L	.	16f\L	.	16dd\L	.
.	.	.	.	16ee-\JJ	.	16gg\JJ	.	16g\JJ	.	16ee-\JJ	.
8FF/	6 n	8F/	.	8ff\L	.	8aa-X\L	.	8a-X\L	-go	8ff\L	-go
8FF/J	.	8F/J	.	16ee-\L	.	16gg\L	.	16g\L	.	16ee-\L	.
.	.	.	.	16dd\JJ	.	16ff\JJ	.	16f\JJ	.	16dd\JJ	.
8GG/L	6 4	8G/L	.	8cc/L	.	8ee-\L	.	4e-\	vi-	4cc\	vi-
8GG/	.	8G/	.	8cc/	.	8ee-\	.	.	.	.	.
8GG/	n	8G/	.	8bn/	.	8dd\	.	8.d\	-xe-	8.bn\	.
8GG/J	.	8G/J	.	8b/J	.	8dd\J	.	.	.	.	.
.	.	.	.	.	.	.	.	16d\	.	16b\	-xe-
=54	=54	=54	=54	=54	=54	=54	=54	=54	=54	=54	=54
!LO:TX:a:t=P:problem=mixed beam	!	!	!	!	!	!	!	!	!	!	!
8C/L	.	8c\L	.	4.cc\	.	4.cc\	.	4c\	-ro	4cc\	-ro
8A-\	.	8a-\	.	.	.	.	.	.	.	.	.
8G\	.	8g\	.	.	.	.	.	4r	.	4r	.
8F\J	.	8f\J	.	8dd-X\	.	8dd-X\	.	.	.	.	.
8E-\L	6	8e-\L	.	4.cc\	.	4.cc\	.	2r	.	2r	.
8F\	.	8f\	.	.	.	.	.	.	.	.	.
8E-\	.	8e-\	.	.	.	.	.	.	.	.	.
!	!	!	!	!LO:SIC:v:s=8b	!	!	!	!	!	!	!
8D\J	6\	8d\J	.	8b-\	.	8bn\	.	.	.	.	.
=55	=55	=55	=55	=55	=55	=55	=55	=55	=55	=55	=55
!LO:TX:a:t=P:problem=mixed beam	!	!	!	!	!	!	!	!LO:TX:a:t=2	!	!	!
8C/L	.	8c\L	.	8e-/L	.	2cc\	.	0r	.	2cc\	Ju-
8c\	.	8cc\	.	8e-/	.	.	.	.	.	.	.
8c\	.	8cc\	.	8e-/	.	.	.	.	.	.	.
8c\J	.	8cc\J	.	8e-/J	.	.	.	.	.	.	.
8B-\L	6	8b-\L	.	8d/L	.	2gg\	.	.	.	2gg\	-xta
8B-\	.	8b-\	.	8d/	.	.	.	.	.	.	.
8B-\	.	8b-\	.	8d/	.	.	.	.	.	.	.
8B-\J	.	8b-\J	.	8d/J	.	.	.	.	.	.	.
=56	=56	=56	=56	=56	=56	=56	=56	=56	=56	=56	=56
!	!	!	!	!LO:TX:a:t=P:problem=mixed beam	!	!	!	!	!	!	!
8A-\L	.	8a-X\L	.	8c/L	.	16ee-\LL	.	.	.	16ee-\LL	cru-
.	.	.	.	.	.	16dd\JJ	.	.	.	16dd\JJ	.
8A-\	.	8a-\	.	8cc\	.	4.cc\	.	.	.	4.cc\	-cem
8E-\	6	8e-\	.	8cc\	.	.	.	.	.	.	.
8E-\J	.	8e-\J	.	8cc\J	.	.	.	.	.	.	.
!LO:TX:a:t=P:problem=mixed beam	!	!	!	!	!	!	!	!	!	!	!
8F\L	.	8f\L	.	8cc\L	.	16dd\LL	.	.	.	16dd\LL	te-
.	.	.	.	.	.	16ee-\	.	.	.	16ee-\	.
8F\	.	8f\	.	8cc\	.	16ff\	.	.	.	16ff\	.
.	.	.	.	.	.	16gg\JJ	.	.	.	16gg\JJ	.
8BBn/	7	8Bn\	.	8dd\	.	8aa-X\L	.	.	.	8aa-X\L	.
8BB/J	.	8B\J	.	8dd\J	.	16gg\L	.	.	.	16gg\L	.
.	.	.	.	.	.	16ff\JJ	.	.	.	16ff\JJ	-cum
=57	=57	=57	=57	=57	=57	=57	=57	=57	=57	=57	=57
!LO:TX:a:t=P:problem=mixed beam	!	!LO:TX:a:t=P:problem=mixed beam	!	!	!	!	!	!	!	!	!
8C/L	.	8c/L	.	8r	.	16ee-\LL	.	2r	.	16ee-\LL	sta-
.	.	.	.	.	.	16dd\J	.	.	.	16dd\JJ	.
8c\	.	8cc\	.	4g/	.	8cc\J	.	.	.	8cc\	-re
8B-\	.	8b-\	.	.	.	4r	.	.	.	4r	.
8An\J	.	8an\J	.	8f#X/	.	.	.	.	.	.	.
8G\L	.	8g\L	.	2g/	.	8b-\L	.	2g\	Te	2r	.
8G\	.	8g\	.	.	.	8b-\	.	.	.	.	.
8G\	.	8g\	.	.	.	8b-\	.	.	.	.	.
8G\J	.	8g\J	.	.	.	8b-\J	.	.	.	.	.
!	!	!	!	!LO:LB:g=original	!	!LO:LB:g=original	!	!	!	!	!
=58	=58	=58	=58	=58	=58	=58	=58	=58	=58	=58	=58
8F\L	6	8f\L	.	2dd\	.	8an/L	.	2dd\	li-	1r	.
8F\	.	8f\	.	.	.	8a/	.	.	.	.	.
8F\	.	8f\	.	.	.	8a/	.	.	.	.	.
8F\J	.	8f\J	.	.	.	8a/J	.	.	.	.	.
8E-\L	.	8e-\L	.	16b-/LL	.	8g/L	.	16b-\LL	-ben-	.	.
.	.	.	.	16an/JJ	.	.	.	16an\JJ	.	.	.
8E-\	.	8e-\J	.	4.g/	.	8g/	.	4.g\	-ter	.	.
!	!	!LO:LB:g=original	!	!	!	!	!	!	!	!	!
8BB-\	6	8B-\L	.	.	.	8g/	.	.	.	.	.
8BB-\J	.	8B-\J	.	.	.	8g/J	.	.	.	.	.
=59	=59	=59	=59	=59	=59	=59	=59	=59	=59	=59	=59
8C/L	.	8c/L	.	16an\LL	.	8.g/L	.	16an\LL	so-	2r	.
.	.	.	.	16b-\	.	.	.	16b-\	.	.	.
8C/	.	8c/	.	16cc\	.	.	.	16cc\	.	.	.
.	.	.	.	16dd\JJ	.	32an/LL	.	16dd\JJ	.	.	.
.	.	.	.	.	.	32b-/JJJ	.	.	.	.	.
8FF#X/	.	8F#X/	.	8ee-\L	.	8cc/L	.	8ee-\L	-ci-	.	.
8FF#/J	7	8F#/J	.	16dd\L	.	16b-/L	.	16dd\L	.	.	.
.	.	.	.	16cc\JJ	.	16a/JJ	.	16cc\JJ	.	.	.
!LO:LB:g=original	!	!	!	!	!	!	!	!	!	!	!
!LO:TX:a:t=P:problem=mixed beam	!	!LO:TX:a:t=P:problem=mixed beam	!	!	!	!	!	!	!	!	!
8GG/L	.	8G/L	.	16b-/LL	.	16g/LL	.	16b-\LL	-a-	4r	.
.	.	.	.	16a/J	.	16f#X/J	.	16an\JJ	.	.	.
8G\J	.	8g\J	.	8g/J	.	8g/J	.	8g\	-re	.	.
4GG/	.	4G/	.	8r	.	8r	.	8r	.	8r	.
.	.	.	.	8gg\	.	8bb-\	.	8g\	in	8b-\	in
!	!	!	!	!	!	!	!	!	!	!LO:LB:g=original	!
=60	=60	=60	=60	=60	=60	=60	=60	=60	=60	=60	=60
8r	.	8r	.	2bb-\	.	2ddd-X\	.	2b-\	planc-	2dd-X\	planc-
8G\L	6	8g\L	.	.	.	.	.	.	.	.	.
8G\	5	8g\	.	.	.	.	.	.	.	.	.
8F\J	.	8f\J	.	.	.	.	.	.	.	.	.
2En\	7	2en\	.	8bb-\L	.	8ddd-\L	.	8b-\L	.	8dd-\L	.
.	6	.	.	8aa-\	.	8ccc\	.	8a-\J	.	8cc\J	.
.	.	.	.	8aa-\	.	8ccc\	.	8a-\	-tu	8cc\	-tu
.	.	.	.	8gg\J	.	8bb-\J	.	8g\	de-	8b-\	de-
=61	=61	=61	=61	=61	=61	=61	=61	=61	=61	=61	=61
8r	.	8r	.	2ff\	.	2aa-X\	.	4.f\	-si-	4.a-\	-si-
!LO:TX:a:t=P:problem=mixed beam	!	!LO:TX:a:t=P:problem=mixed beam	!	!	!	!	!	!	!	!	!
8F\L	.	8f\L	.	.	.	.	.	.	.	.	.
8BBn/	7	8Bn/	.	.	.	.	.	.	.	.	.
8BB/J	.	8B/J	.	.	.	.	.	8f\	-de-	8a-\	-de-
!	!	!	!	!	!	!	!	!LO:LB:g=original	!	!	!
4C/	n	4c/	.	16gg\LL	.	16gg\LL	.	4en\	-ro	4g\	-ro
.	.	.	.	16ff\	.	16ff\	.	.	.	.	.
.	.	.	.	16een\	.	16een\	.	.	.	.	.
.	.	.	.	16ff\JJ	.	(16ff\JJ	.	.	.	.	.
4r	.	4r	.	16ee\LL	.	16ee\LL)	.	4r	.	8r	.
.	.	.	.	16ff\	.	16ff\	.	.	.	.	.
.	.	.	.	16ee\	.	16ee\	.	.	.	8ff\	in
.	.	.	.	16ff\JJ	.	16ff\JJ	.	.	.	.	.
=62	=62	=62	=62	=62	=62	=62	=62	=62	=62	=62	=62
8r	.	8r	.	2bn\	.	2bn\	.	2r	.	2bn\	plan-
8A-X\L	2	8a-X\L	.	.	.	.	.	.	.	.	.
8G\	.	8g\	.	.	.	.	.	.	.	.	.
8F\J	.	8f\J	.	.	.	.	.	.	.	.	.
4En\	6	4en\	.	16cc\LL	.	16cc\LL	.	4r	.	4cc\	-ctu
.	.	.	.	16gg\	.	16gg\	.	.	.	.	.
.	.	.	.	16ff#X\	.	(16ff#X\	.	.	.	.	.
.	.	.	.	16gg\JJ	.	16gg\JJ	.	.	.	.	.
4r	.	4r	.	16ff#\LL	.	16ff#\LL	.	8r	.	8r	.
.	.	.	.	16gg\	.	16gg\)	.	.	.	.	.
.	.	.	.	16ff#\	.	16ff#\	.	8c\	in	8bn\	in
.	.	.	.	16gg\JJ	.	16gg\JJ	.	.	.	.	.
=63	=63	=63	=63	=63	=63	=63	=63	=63	=63	=63	=63
8r	.	8r	.	2b-X\	.	2dd-X\	.	2b-X\	planc-	2dd-X\	planc-
8C\L	.	8c\L	.	.	.	.	.	.	.	.	.
8D\	.	8d\	.	.	.	.	.	.	.	.	.
8En\J	7	8en\J	.	.	.	.	.	.	.	.	.
!LO:TX:a:t=P:problem=mixed beam	!	!LO:TX:a:t=P:problem=mixed beam	!	!	!	!	!	!	!	!	!
8F\L	.	8f\L	.	8a-/L	.	8cc\L	.	8a-X\L	-tu	16cc\LL	-tu
.	.	.	.	.	.	.	.	.	.	16b-\J	.
8F\	.	8f\	.	16g/L	.	16b-\L	.	16g\L	.	8cc\J	.
.	.	.	.	16a-/JJ	.	16cc\JJ	.	16a-\JJ	.	.	.
8BB-/	6	8B-/	.	8b-/L	.	8dd-X\L	.	8b-\L	de-	8dd-X\L	.
8BB-/J	.	8B-/J	.	16an/L	.	16cc\L	.	16a-\L	.	16cc\L	.
.	.	.	.	16g/JJ	.	16b-\JJ	.	16g\JJ	.	16b-\JJ	de-
=64	=64	=64	=64	=64	=64	=64	=64	=64	=64	=64	=64
8C/L	6 4	8c\L	.	8f/L	.	8a-/L	.	4f\	-si-	4a-\	-si-
8C/	.	8c\	.	8f/	.	8a-/	.	.	.	.	.
8C/	n	8c\	.	8en/	.	8g/	.	8.en\	-de-	8.g/	.
8C/J	.	8c\J	.	8e/J	.	8g/J	.	.	.	.	.
!	!	!	!	!	!	!	!	!LO:SIC:v:l:t=bez sylaby	!	!	!
.	.	.	.	.	.	.	.	16e\	-ri-	16g/	-de-
!	!	!	!	!	!	!	!	!LO:SIC:v:l:s=-ro	!	!	!
8F\L	.	8f\L	.	4.ff\	.	4.ff\	.	4f\	-o	4f/	-ro
8d-X\	.	8dd-X\	.	.	.	.	.	.	.	.	.
8c\	-	8cc\	.	.	.	.	.	4r	.	4r	.
8B-\J	6	8b-\J	.	8gg-X\	.	8gg-X\	.	.	.	.	.
=65	=65	=65	=65	=65	=65	=65	=65	=65	=65	=65	=65
8qqG/	.	.	.	.	.	.	.	.	.	.	.
8A-\L	6	8an\L	.	4.ff\	.	4.ff\	.	00r	.	0r	.
8B-\	.	8b-\	.	.	.	.	.	.	.	.	.
8A-\	.	8b-\	.	.	.	.	.	.	.	.	.
8G\J	.	8g\J	.	8een\	.	8een\	.	.	.	.	.
8F\L	.	8f\L	.	4.ff\	.	4.ff\	.	.	.	.	.
8D-X\	.	8d-X\	.	.	.	.	.	.	.	.	.
8C\	.	8c\	.	.	.	.	.	.	.	.	.
8BB-\J	.	8B-\J	.	8gg-X\	.	8gg-X\	.	.	.	.	.
=66	=66	=66	=66	=66	=66	=66	=66	=66	=66	=66	=66
8AA-X/L	6	8A-/L	.	4.ff\	.	4.ff\	.	.	.	.	.
8BB-/	.	8B-/	.	.	.	.	.	.	.	.	.
8AA-/	.	8A-/	.	.	.	.	.	.	.	.	.
8GG/J	6\	8G/J	.	8een\	.	8een\	.	.	.	.	.
8FF/L	.	8F/L	.	8ff\L	.	8ff\L	f	.	.	.	.
8GG/	.	8G/	.	16een\L	.	16een\L	.	.	.	.	.
.	.	.	.	16dd-X\JJ	.	16dd-X\JJ	.	.	.	.	.
!	!	!	!	!LO:LB:g=original	!	!	!	!	!	!	!
8AA-/	.	8A-/	.	16cc\LL	.	16cc\LL	.	.	.	.	.
.	.	.	.	16dd-X\	.	16dd-X\	.	.	.	.	.
8BB-/J	.	8B-/J	.	16b-\	.	16cc\	.	.	.	.	.
.	.	.	.	16g\JJ	.	16b-\JJ	.	.	.	.	.
=67	=67	=67	=67	=67	=67	=67	=67	=67	=67	=67	=67
8C/L	4	8c\L	.	4f/	.	8a-/L	.	.	.	2r	.
8C/	.	8c\	.	.	.	8f/J	.	.	.	.	.
8C/	n	8c\	.	4en/	.	4en/	.	.	.	.	.
8C/J	.	8c\J	.	.	.	.	.	.	.	.	.
8F\L	.	8f\L	.	8f/L	.	2ff\	.	.	.	2ff\	Vir-
8F\	.	8f\	.	8a-/	.	.	.	.	.	.	.
8F\	.	8f\	.	8a-/	.	.	.	.	.	.	.
8F\J	.	8f\J	.	8a-/J	.	.	.	.	.	.	.
!LO:LB:g=original	!	!	!	!	!	!LO:LB:g=original	!	!	!	!	!
=68	=68	=68	=68	=68	=68	=68	=68	=68	=68	=68	=68
8E-\L	6	8e-\L	.	8g/L	.	2cc\	.	.	.	2cc\	-go
8E-\	.	8e-\	.	8g/	.	.	.	.	.	.	.
8E-\	.	8e-\	.	8g/	.	.	.	.	.	.	.
8E-\J	.	8e-\J	.	8g/J	.	.	.	.	.	.	.
8D-X\L	.	8d-X\L	.	2ff\	.	8a-/L	.	.	.	8.a-/	vir-
8D-\	.	8d-\	.	.	.	8a-/	.	.	.	.	.
.	.	.	.	.	.	.	.	.	.	16g/	-gi-
8AA-\	6	8A-\	.	.	.	8a-/	.	.	.	4f/	-nu(m)
8AA-\J	.	8A-\J	.	.	.	8a-/J	.	.	.	.	.
!	!	!LO:LB:g=original	!	!	!	!	!	!	!	!	!
=69	=69	=69	=69	=69	=69	=69	=69	=69	=69	=69	=69
!LO:TX:a:t=P:problem=mixed beam	!	!LO:TX:a:t=P:problem=mixed beam	!	!	!	!	!	!	!LO:SIC:v:l:s=prae-	!	!
8BB-/L	6 -5	8B-/L	.	2b-\	.	16g/LL	.	1r	.	16g\LL	pre-
.	.	.	.	.	.	16a-/	.	.	.	16a-\	.
8B-\	.	8B-/	.	.	.	16b-/	.	.	.	16b-\	.
.	.	.	.	.	.	16cc/JJ	.	.	.	16cc\JJ	.
!	!	!	!	!	!	!	!	!	!	!LO:LB:g=original	!
8En\	6 5	8en\	.	.	.	8dd-X\L	.	.	.	8dd-X\L	.
8E\J	.	8e\J	.	.	.	16cc\L	.	.	.	16cc\L	.
.	.	.	.	.	.	16b-\JJ	.	.	.	16b-\JJ	.
8F\L	.	8f\L	.	16ff\LL	.	4a-/	.	.	.	16a-/LL	-cla-
.	.	.	.	16gg\	.	.	.	.	.	16g/JJ	.
8F\	.	8f\	.	16aa-\	.	.	.	.	.	8f/	-ra
.	.	.	.	16bb-\JJ	.	.	.	.	.	.	.
8D\	7	8d\	.	8ccc\L	.	4r	.	.	.	4r	.
8D\J	.	8d\J	.	16bb-\L	.	.	.	.	.	.	.
.	.	.	.	16aa-\JJ	.	.	.	.	.	.	.
=70	=70	=70	=70	=70	=70	=70	=70	=70	=70	=70	=70
!	!	!	!	!LO:TX:a:t=P:problem=mixed beam	!	!	!	!	!	!	!
8E-\L	.	8e-\L	.	8gg\L	.	2ee-\	.	2ee-\	Mi-	0r	.
8E-\	.	8e-\	.	8g/	.	.	.	.	.	.	.
8E-\	.	8e-\	.	8g/	.	.	.	.	.	.	.
8E-\J	.	8e-\J	.	8g/J	.	.	.	.	.	.	.
8D\L	6	8d\L	.	8f/L	.	2b-\	.	2b-\	-hi	.	.
8D\	.	8d\	.	8f/	.	.	.	.	.	.	.
8D\	.	8d\	.	8f/	.	.	.	.	.	.	.
8D\J	.	8d\J	.	8f/J	.	.	.	.	.	.	.
=71	=71	=71	=71	=71	=71	=71	=71	=71	=71	=71	=71
8C/L	.	8c/L	.	2ee-\	.	8g/L	.	4.e-\	Jam	.	.
8C/	.	8c/	.	.	.	8g/	.	.	.	.	.
8GG/	6	8G/	.	.	.	8g/	.	.	.	.	.
8GG/J	.	8G/J	.	.	.	8g/J	.	8e-\	non	.	.
!LO:TX:a:t=P:problem=mixed beam	!	!LO:TX:a:t=P:problem=mixed beam	!	!	!	!	!	!	!	!	!
8AA-/L	.	8A-/L	.	2b-\	.	16f/LL	.	16f\LL	sis	.	.
.	.	.	.	.	.	16g/	.	16g\	.	.	.
8A-\	.	8a-\	.	.	.	16a-/	.	16a-\	.	.	.
.	.	.	.	.	.	16b-/JJ	.	16b-\JJ	.	.	.
8D\	7	8dn\	.	.	.	8cc/L	.	8cc\	a-	.	.
8D\J	.	8d\J	.	.	.	16b-/L	.	16b-\LL	-ma-	.	.
.	.	.	.	.	.	16a-/JJ	.	16a-\JJ	.	.	.
=72	=72	=72	=72	=72	=72	=72	=72	=72	=72	=72	=72
8E-\L	.	8e-\L	.	8e-/	.	8g/L	.	8g\L	-ra	2r	.
8G\	.	8g\	.	4ee-\	.	16f/L	.	16f\L	.	.	.
.	.	.	.	.	.	16e-/JJ	.	16e-\JJ	.	.	.
8F\	7	8f\	.	.	.	4r	.	4r	.	.	.
8A-\J	4 2	8a-\J	.	8dd\	.	.	.	.	.	.	.
8G\	6	8g\	.	8r	.	8r	.	4.g\	fac	4.b-\	Fac
8r	.	8r	.	8gg\	.	8bb-\	.	.	.	.	.
8E-\	.	8e-\	.	8r	.	8r	.	.	.	.	.
8r	.	8r	.	8gg\	.	8ccc\	.	8a-\	me	8cc\	me
=73	=73	=73	=73	=73	=73	=73	=73	=73	=73	=73	=73
.	.	.	.	.	.	.	.	.	.	8qqb-/	.
8F\	6	8f\	.	8r	.	8r	.	4.f\	te-	4.a-\	te-
8r	.	8r	.	8ff\	.	8aa-\	.	.	.	.	.
8BB-/	.	8d\	.	8r	.	8r	.	.	.	.	.
8r	.	8r	.	8ff\	.	8bb-\	.	8g\	-cum	8b-\	-cum
!	!	!	!	!	!	!	!	!LO:LB:g=original	!	!	!
.	.	.	.	.	.	.	.	8qqf/	.	8qqa-/	.
!	!	!	!	!	!	!	!	!	!	!LO:N:vis=8.	!
8E-\	.	8e-\	.	8r	.	8r	.	4.e-\	plan-	4.g/	plan-
8r	.	8r	.	8ee-\	.	8gg\	.	.	.	.	.
8AAn/	7	8An/	.	8r	.	8r	.	.	.	.	.
!	!	!	!	!	!	!	!	!	!	!LO:N:vis=16	!
8r	.	8r	.	8ee-\	.	8gg\	.	8e-\	-ge-	8g/	-ge-
=74	=74	=74	=74	=74	=74	=74	=74	=74	=74	=74	=74
4BB-/	.	4B-/	.	4dd\	.	8ff\	.	4d\	-re	4f/	-re
.	.	.	.	.	.	8r	.	.	.	.	.
4r	.	4r	.	4r	.	4r	.	4r	.	4r	.
4r	.	4r	.	4.d/	.	4.f/	.	4.d\	mi-	4.f/	mi-
4BB-/	.	4b-\	.	.	.	.	.	.	.	.	.
.	.	.	.	8e-/	.	8g-X/	.	8e-X\	-hi	8g/	-hi
=75	=75	=75	=75	=75	=75	=75	=75	=75	=75	=75	=75
!	!	!	!	!	!	!LO:SIC:v:s=8qg-	!	!	!	!	!
.	.	.	.	.	.	8qqg/	.	.	.	.	.
8BB-/L	.	4.b-\	.	4.d/	.	4.f/	.	4.d\	Jam	4.f/	Iam
8C-X/J	.	.	.	.	.	.	.	.	.	.	.
4BB-/	.	.	.	.	.	.	.	.	.	.	.
.	.	8an\	.	8e-/	.	8g-X/	.	8e-\	non	8g-X/	non
8BB-/L	.	4.b-\	.	4.d/	.	4.f/	.	4.d\	sis	4.f/	sis
(8C-X/J	.	.	.	.	.	.	.	.	.	.	.
4BB-/)	.	.	.	.	.	.	.	.	.	.	.
.	.	8an\	.	8e-/	.	8g-/	.	8e-\	s-	8g-/	a-
!LO:LB:g=original	!	!	!	!	!	!	!	!	!	!	!
=76	=76	=76	=76	=76	=76	=76	=76	=76	=76	=76	=76
8BB-\L	.	8b-\L	.	16f/LL	.	16f/LL	.	16d\LL	-ma-	16f/LL	-ma-
!	!	!	!	!	!	!LO:TX:b:t=P:problem=♮ below	!	!	!	!	!
.	.	.	.	16en/J	.	16en/J	.	16c\JJ	.	16en/JJ	.
8F\	.	8a-X\	.	8f/J	.	8f/J	.	8d\	-ra	8f/	-ra
!	!	!	!	!LO:LB:g=original	!	!	!	!	!	!	!
8D\	.	8f\	.	4r	.	4r	.	4r	.	4r	.
8BB-\J	.	8d\J	.	.	.	.	.	.	.	.	.
4GG/	.	4e-\	.	16r	.	16r	.	4e-\	fac	4b-\	Fac
.	.	.	.	16eeny\LL	.	16eeny\LL	.	.	.	.	.
.	.	.	.	16dd\	.	(16dd\	.	.	.	.	.
.	.	.	.	16ee\JJ	.	16ee\JJ	.	.	.	.	.
4r	.	4r	.	16dd\LL	.	16dd\LL)	.	4r	.	4r	.
.	.	.	.	16ee\	.	16ee\	.	.	.	.	.
.	.	.	.	16dd\	.	16dd\	.	.	.	.	.
.	.	.	.	16ee\JJ	.	16ee\JJ	.	.	.	.	.
=77	=77	=77	=77	=77	=77	=77	=77	=77	=77	=77	=77
8r	.	8r	.	2an/	.	2an/	.	1r	.	4.an\	fac
8G-X\L	2	8g-X\L	.	.	.	.	.	.	.	.	.
8F\	n	8f\	.	.	.	.	.	.	.	.	.
8E-\J	.	8e-\J	.	.	.	.	.	.	.	8a\	me
!	!	!	!	!	!	!	!	!	!	!LO:LB:g=original	!
4D\	6	4d\	.	16b-\LL	.	16b-\LL	.	.	.	16b-\LL	te-
.	.	.	.	16ff\	.	16ff\	.	.	.	16an\JJ	-cum
.	.	.	.	16een\	.	16een\	.	.	.	8b-\	.
.	.	.	.	16ff\JJ	.	16ff\JJ	.	.	.	.	.
4r	.	4r	.	16ee\LL	.	(16ee\LL	.	.	.	4r	.
.	.	.	.	16ff\	.	16ff\	.	.	.	.	.
.	.	.	.	16ee\	.	16ee\)	.	.	.	.	.
.	.	.	.	16ff\JJ	.	16ff\JJ	.	.	.	.	.
=78	=78	=78	=78	=78	=78	=78	=78	=78	=78	=78	=78
.	.	.	.	.	.	8qqb-/	.	.	.	.	.
8r	.	8r	.	2a-X/	.	2a-X/	.	4.f\	fac	4.a-X\	fac
8BB-/L	7	8B-\L	.	.	.	.	.	.	.	.	.
8C/	.	8c\	.	.	.	.	.	.	.	.	.
8D/J	.	8d\J	.	.	.	.	.	8f\	me	8a-\	me
!LO:TX:a:t=P:problem=mixed beam	!	!LO:TX:a:t=P:problem=mixed beam	!	!	!	!LO:LB:g=original	!	!	!	!	!
8E-\L	.	8e-\L	.	16g/LL	.	16g/LL	.	4e-\	te-	4g\	te-
.	.	.	.	16b-/	.	16b-/	.	.	.	.	.
8E-\	.	8e-\	.	16a-/	.	16a-/	.	.	.	.	.
.	.	.	.	16g/JJ	.	16g/JJ	.	.	.	.	.
8AA-/	.	8A-/	.	16cc/LL	.	16cc/LL	.	4e-\	-cum	16cc\LL	-cum
.	.	.	.	16a-/	.	16a-/	.	.	.	16a-\	.
8AA-/J	.	8A-/J	.	16g/	.	16g/	.	.	.	16g\	.
.	.	.	.	16f/JJ	.	16f/JJ	.	.	.	16f\JJ	.
!	!	!LO:LB:g=original	!	!	!	!	!	!	!	!	!
=79	=79	=79	=79	=79	=79	=79	=79	=79	=79	=79	=79
8BB-/L	6 4	8B-/L	.	8.e-/L	.	8.e-/L	.	4e-\	plan-	4g/	plan-
8BB-/	.	8B-/	.	.	.	.	.	.	.	.	.
.	.	.	.	16f/Jk	.	16f/Jk	.	.	.	.	.
8BB-/	n	8B-/	.	4f/	.	4f/	.	8.d\	-ge-	8.f/	.
8BB-/J	.	8B-/J	.	.	.	.	.	.	.	.	.
.	.	.	.	.	.	.	.	16d\	.	16f/	-ge-
!	!	!	!	!LO:TX:a:t=P:problem=mixed beam	!	!LO:TX:a:t=P:problem=mixed beam	!	!	!	!	!
4E-\	.	4e-\	.	16e-/LL	.	16e-/LL	.	4e-\	-re	4e-/	-re
.	.	.	.	16ee-\	.	16ee-\	.	.	.	.	.
.	.	.	.	16dd\	.	16dd\	.	.	.	.	.
.	.	.	.	16ee-\JJ	.	16ee-\JJ	.	.	.	.	.
4r	.	4r	.	16dd\LL	.	(16dd\LL	.	4r	.	4r	.
.	.	.	.	16ee-\	.	16ee-\	.	.	.	.	.
.	.	.	.	16dd\	.	16dd\)	.	.	.	.	.
.	.	.	.	16ee-\JJ	.	16ee-\JJ	.	.	.	.	.
=80	=80	=80	=80	=80	=80	=80	=80	=80	=80	=80	=80
8r	.	8r	.	2an/	.	2an/	.	4.an\	fac	1r	.
8G-X\L	2	8g-X\L	.	.	.	.	.	.	.	.	.
8F\	.	8f\	.	.	.	.	.	.	.	.	.
8E-\J	.	8e-\J	.	.	.	.	.	8a\	me	.	.
4D\	6	4d\	.	16b-\LL	.	16b-\LL	.	16b-\LL	te-	.	.
.	.	.	.	16ff\	.	16ff\	.	16an\JJ	.	.	.
.	.	.	.	16een\	.	16een\	.	8b-\	-cum	.	.
.	.	.	.	16ff\JJ	.	(16ff\JJ	.	.	.	.	.
4r	.	4r	.	16ee\LL	.	16ee\LL	.	4r	.	.	.
.	.	.	.	16ff\	.	16ff\)	.	.	.	.	.
.	.	.	.	16ee\	.	16ee\	.	.	.	.	.
.	.	.	.	16ff\JJ	.	16ff\JJ	.	.	.	.	.
!	!	!	!	!	!	!	!	!LO:LB:g=original	!	!	!
=81	=81	=81	=81	=81	=81	=81	=81	=81	=81	=81	=81
8r	.	8r	.	2ff\	.	2aa-\	.	4a-\	fac	4ff\	fac
8BB-/L	7	8B-\L	.	.	.	.	.	.	.	.	.
8C/	.	8c\	.	.	.	.	.	4a-\	me	4ff\	me
8D/J	.	8d\J	.	.	.	.	.	.	.	.	.
*	*	*	*	*	*	*	*	*	*	*Xtuplet	*
8E-\L	.	8e-\L	.	8ee-\L	.	8gg\L	.	4g\	te-	24ee-\LL	te-
.	.	.	.	.	.	.	.	.	.	24gg\	.
.	.	.	.	.	.	.	.	.	.	(24ff\	.
8F\	.	8f\	.	16dd\L	.	16ff\L	.	.	.	24ee-\)	.
.	.	.	.	.	.	.	.	.	.	24dd\	.
.	.	.	.	16cc\JJ	.	16ee-\JJ	.	.	.	.	.
.	.	.	.	.	.	.	.	.	.	24cc\JJ	.
8G\	6	8g\	.	16b-/LL	.	16dd\LL	.	4f\	-cum	8b-\L	-cum
.	.	.	.	16a-/	.	16cc\	.	.	.	.	.
8A-\J	.	8a-\J	.	16g/	.	16b-\	.	.	.	8a-\J	.
.	.	.	.	16f/JJ	.	16a-\JJ	.	.	.	.	.
=82	=82	=82	=82	=82	=82	=82	=82	=82	=82	=82	=82
!LO:TX:a:t=P:problem=mixed beam	!	!LO:TX:a:t=P:problem=mixed beam	!	!	!	!	!	!	!	!	!
8B-\L	6 4	8b-\L	.	4e-/	.	4g/	.	4e-\	plan-	4g/	plan-
8B-\	.	8b-\	.	.	.	.	.	.	.	.	.
8BB-/	7	8B-/	.	4d/	.	4f/	.	8.d\	.	8.f/	.
8BB-/J	.	8B-/J	.	.	.	.	.	.	.	.	.
.	.	.	.	.	.	.	.	16d\	-ge-	16f/	-ge-
8E-\L	.	8e-\L	.	16g/LL	.	16g/LL	.	4e-\	-re	4e-/	-re
.	.	.	.	16e-/	.	(16e-/	.	.	.	.	.
8E-\	.	8e-\	.	16e-/	.	16e-/	.	.	.	.	.
.	.	.	.	16g/JJ	.	16g/JJ)	.	.	.	.	.
8E-\	.	8e-\	.	16g/LL	.	16g/LL	.	4r	.	4r	.
.	.	.	.	16b-/	.	[16b-/	.	.	.	.	.
8E-\J	-7	8e-\J	.	16b-/	.	(16b-/]	.	.	.	.	.
.	.	.	.	16dd-X/JJ	.	16dd-X/JJ)	.	.	.	.	.
!	!	!	!	!LO:PB:g=original	!	!	!	!	!	!	!
=83	=83	=83	=83	=83	=83	=83	=83	=83	=83	=83	=83
!	!	!	!	!	!	!	!	!LO:TX:a:t=2	!	!	!
8E-\L	6 4	8e-\L	.	(16cc\LL	.	16cc\LL	.	0r	.	0r	.
.	.	.	.	16ddn\)	.	16ddn\	.	.	.	.	.
8E-\	-7	8e-\	.	(16dd\	.	16dd\	.	.	.	.	.
.	.	.	.	16ee-\JJ)	.	16ee-\JJ	.	.	.	.	.
8E-\	n	8e-\	.	(16ee-\LL	.	(16ee-\LL	.	.	.	.	.
.	.	.	.	16b-\)	.	16b-\)	.	.	.	.	.
8E-\J	8	8e-\J	.	(16g\	.	(16g\	.	.	.	.	.
.	.	.	.	16e-\JJ)	.	16e-\JJ)	.	.	.	.	.
2BB-/	7	8B-/L	.	(16f/LL	.	(16f/LL	.	.	.	.	.
.	.	.	.	16a-/)	.	16a-/)	.	.	.	.	.
.	.	8B-/	.	(16g/	.	(16g/	.	.	.	.	.
.	.	.	.	16b-/JJ)	.	16b-/JJ)	.	.	.	.	.
.	.	8B-/	.	8.a-/L	.	8.a-/L	.	.	.	.	.
.	.	8B-/J	.	.	.	.	.	.	.	.	.
.	.	.	.	32g/LL	.	32g/LL	.	.	.	.	.
.	.	.	.	32f/JJJ	.	32f/JJJ	.	.	.	.	.
=84	=84	=84	=84	=84	=84	=84	=84	=84	=84	=84	=84
!LO:TX:a:t=P:problem=mixed beam	!	!LO:TX:a:t=P:problem=mixed beam	!	!	!	!	!	!	!	!	!
8E-\L	.	8e-\L	.	16g/LL	.	16g/LL	.	.	.	.	.
.	.	.	.	16cc/	.	16cc/	.	.	.	.	.
8AA-/	.	8a-\	.	16a-/	.	16a-/	.	.	.	.	.
.	.	.	.	16f/JJ	.	16f/JJ	.	.	.	.	.
.	.	.	.	.	.	8qqe-/	.	.	.	.	.
8BB-/	.	8b-\	.	4d/	.	4d/	.	.	.	.	.
8BB-/J	.	8B-/J	.	.	.	.	.	.	.	.	.
!LO:LB:g=original	!	!	!	!	!	!	!	!	!	!	!
4EE-/	.	4e-\	.	8e-/L	.	8e-/L	.	.	.	.	.
.	.	.	.	8B-/J	.	8B-/J	.	.	.	.	.
!	!	!LO:TX:b:t=Cito	!	!	!	!	!	!	!	!	!
4r	.	4r	.	4G/	.	4G/	.	.	.	.	.
==	==	==	==	==	==	==	==	==	==	==	==
*-	*-	*-	*-	*-	*-	*-	*-	*-	*-	*-	*-
!!!system-decoration: [g1][g2]s6
!!!RDF**kern: > = above
!!!RDF**dynam: f = for
!!!AIN: 1 alto 1 organ 1 viola 2 violn 1 vox
!!!ENC: Marta Lawrence
!!!END: 2020-11-29
!!!ENC: Andrzej Gręziak
!!!END: 2020-06-12
